!!!!SEGMENT: pl-sa--307-a-vii-67_lechleitner-ferdinand-simon--offertorium-de-sancto-michaele-archangelo.krn
!!!id: 17xx:392
!!!COM: Lechleitner, Ferdinand Simon
!!!COM-rism: pe30001903
!!!CDT:
!!!CNT:
!!!OTL: Offertorium de Sancto Michaele Archangelo
!!!PDT:
!!!SMS-siglum: PL-SA
!!!SMS-shelfmark: 307/A VII 67
!!!NIFC-rismID: 1001039503
!!!URL-scan: http://bc.bdsandomierz.pl/dlibra/publication/1612/edition/1580/content
!!!ONB-nifc: UWAGA: partia altówki nie ujęta na stronie tytułowej
**kern	**fba	**dynam	**kern	**kern	**dynam	**kern	**kern	**text	**dynam	**kern	**text	**dynam	**kern	**text	**dynam	**kern	**text	**dynam	**kern	**dynam	**kern	**dynam
*part10	*	*part10	*part9	*part8	*part8	*part7	*part6	*part6	*part6	*part5	*part5	*part5	*part4	*part4	*part4	*part3	*part3	*part3	*part2	*part2	*part1	*part1
*staff10	*	*	*staff9	*staff8	*	*staff7	*staff6	*staff6	*	*staff5	*staff5	*	*staff4	*staff4	*	*staff3	*staff3	*	*staff2	*	*staff1	*
*I"Organo	*	*	*??	*I"Violino 2do	*	*I"Violino πmo	*I"Bafso	*	*	*I"Tenore.	*	*	*I"Alto	*	*	*I"Canto	*	*	*I"Clarino 2do	*	*I"Clarino 1mo	*
*I'Org	*	*	*	*I'Vno II	*	*I'Vno I	*I'B.	*	*	*I'T.	*	*	*I'A.	*	*	*I'C	*	*	*I'Clar 2	*	*I'Clar I	*
*clefF4	*	*	*clefF4	*clefG2	*	*clefG2	*clefF4	*	*	*clefC4	*	*	*clefC3	*	*	*clefC1	*	*	*clefG2	*	*clefG2	*
*	*	*	*	*	*	*	*	*	*	*	*	*	*	*	*	*	*	*	*ITrd-1c-2	*	*ITrd-1c-2	*
*k[f#c#]	*	*	*k[f#c#]	*k[f#c#]	*	*k[f#c#]	*k[f#c#]	*	*	*k[f#c#]	*	*	*k[c#f#]	*	*	*k[f#c#]	*	*	*k[f#c#]	*	*k[f#c#]	*
*M2/2	*	*	*M2/2	*M2/2	*	*M2/2	*M2/2	*	*	*M2/2	*	*	*M2/2	*	*	*M2/2	*	*	*M2/2	*	*M2/2	*
*met(c|)	*	*	*met(c|)	*met(c|)	*	*met(c|)	*met(c|)	*	*	*met(c|)	*	*	*met(c|)	*	*	*met(c|)	*	*	*met(c|)	*	*met(c|)	*
=1	=1	=1	=1	=1	=1	=1	=1	=1	=1	=1	=1	=1	=1	=1	=1	=1	=1	=1	=1	=1	=1	=1
!	!	!	!	!	!	!	!LO:TX:b:t=Solo	!	!	!	!	!	!	!	!	!LO:SIC:o=:v: # cis powtórzony w oktawie dwukreślnej	!	!	!	!	!	!
!LO:TX:a:t=Adagio	!	!	!	!LO:SIC:s:o=:v: # fis powtórzony w oktawie razkreślnej	!	!LO:TX:b:t=Factum est.	!LO:TX:a:t=Adagio	!	!	!LO:TX:a:t=43	!	!	!LO:TX:a:t=43	!	!	!LO:TX:b:t=Factum est	!	!	!	!	!	!
!LO:TX:b:t=Factum est praelium.	!	!	!LO:TX:b:t=Factum est	!LO:TX:b:t=Factum est	!	!LO:SIC:s=:v: # fis powtórzony w oktawie razkreślnej	!LO:SIC:s=:v: # fis powtórzony w oktawie wielkiej	!	!	!LO:TX:b:t=Factum est.	!	!	!LO:TX:b:t=Factum est.	!	!	!LO:TX:a:t=43	!	!	!LO:TX:b:t=Factum est poelium	!	!LO:TX:b:t=Factum est proelium	!
4r	.	.	4r	00r	.	00r	1r	.	.	00r	.	.	00r	.	.	00r	.	.	00r	.	00r	.
8r	.	.	8r	.	.	.	.	.	.	.	.	.	.	.	.	.	.	.	.	.	.	.
!LO:TX:a:t=Solo	!	!	!	!	!	!	!	!	!	!	!	!	!	!	!	!	!	!	!	!	!	!
16D/LL	.	.	16D/LL	.	.	.	.	.	.	.	.	.	.	.	.	.	.	.	.	.	.	.
16C#/JJ	6	.	16C#/JJ	.	.	.	.	.	.	.	.	.	.	.	.	.	.	.	.	.	.	.
*	*	*	*8\right	*	*	*	*	*	*	*	*	*	*	*	*	*	*	*	*	*	*	*
8D\L	.	.	8D\L	.	.	.	.	.	.	.	.	.	.	.	.	.	.	.	.	.	.	.
*	*	*	*16\right	*	*	*	*	*	*	*	*	*	*	*	*	*	*	*	*	*	*	*
16D\L	.	.	16D\L	.	.	.	.	.	.	.	.	.	.	.	.	.	.	.	.	.	.	.
16E\JJ	6	.	16E\JJ	.	.	.	.	.	.	.	.	.	.	.	.	.	.	.	.	.	.	.
16F#\LL	6	.	16F#\LL	.	.	.	.	.	.	.	.	.	.	.	.	.	.	.	.	.	.	.
16E\	6	.	16E\	.	.	.	.	.	.	.	.	.	.	.	.	.	.	.	.	.	.	.
16F#\	6	.	16F#\	.	.	.	.	.	.	.	.	.	.	.	.	.	.	.	.	.	.	.
16D\JJ	.	.	16D\JJ	.	.	.	.	.	.	.	.	.	.	.	.	.	.	.	.	.	.	.
=2	=2	=2	=2	=2	=2	=2	=2	=2	=2	=2	=2	=2	=2	=2	=2	=2	=2	=2	=2	=2	=2	=2
*^	*	*	*	*	*	*	*	*	*	*	*	*	*	*	*	*	*	*	*	*	*	*
!	!	!	!	!	!	!	!	!LO:SIC:s:o=:v:brak kreski taktowej	!	!	!	!	!	!	!	!	!	!	!	!	!	!	!
8A\L	2ryy	.	.	8A\L	.	.	.	2r	.	.	.	.	.	.	.	.	.	.	.	.	.	.	.
!LO:SIC:s:o=:v: pierwsza dodana górna na długości 5 nut	!	!	!LO:SIC:s:o=:v: pierwsza dodana górna na długości 5 nut	!	!	!	!	!	!	!	!	!	!	!	!	!	!	!	!	!	!	!	!
8d\J	.	.	.	8d\	.	.	.	.	.	.	.	.	.	.	.	.	.	.	.	.	.	.	.
8B\L	.	5	.	8B\	.	.	.	.	.	.	.	.	.	.	.	.	.	.	.	.	.	.	.
8c#\J	.	6 5	.	8c#\J	.	.	.	.	.	.	.	.	.	.	.	.	.	.	.	.	.	.	.
8d\L	4DD/	.	.	8d\L	.	.	.	8r	.	.	.	.	.	.	.	.	.	.	.	.	.	.	.
8d\J	.	.	.	8d\J	.	.	.	8D/	Fac-	.	.	.	.	.	.	.	.	.	.	.	.	.	.
*	*	*	*	*	*	*	*	*8\right	*	*	*	*	*	*	*	*	*	*	*	*	*	*	*
4r	4ryy	.	.	4r	.	.	.	8F#\	-tum	.	.	.	.	.	.	.	.	.	.	.	.	.	.
.	.	.	.	.	.	.	.	8A\	est	.	.	.	.	.	.	.	.	.	.	.	.	.	.
*v	*v	*	*	*	*	*	*	*	*	*	*	*	*	*	*	*	*	*	*	*	*	*	*
=3	=3	=3	=3	=3	=3	=3	=3	=3	=3	=3	=3	=3	=3	=3	=3	=3	=3	=3	=3	=3	=3	=3
16r	.	.	16r	.	.	.	8.d\	proe-	.	.	.	.	.	.	.	.	.	.	.	.	.	.
16D\LL	.	.	16D\LL	.	.	.	.	.	.	.	.	.	.	.	.	.	.	.	.	.	.	.
16E\	6	.	16E\	.	.	.	.	.	.	.	.	.	.	.	.	.	.	.	.	.	.	.
16F#\JJ	5	.	16F#\JJ	.	.	.	16d\	-li-	.	.	.	.	.	.	.	.	.	.	.	.	.	.
16G\LL	.	.	16G\LL	.	.	.	8d\	-um	.	.	.	.	.	.	.	.	.	.	.	.	.	.
16A\	.	.	16A\	.	.	.	.	.	.	.	.	.	.	.	.	.	.	.	.	.	.	.
16B\	6	.	16B\	.	.	.	8r	.	.	.	.	.	.	.	.	.	.	.	.	.	.	.
16c#\JJ	.	.	16c#\JJ	.	.	.	.	.	.	.	.	.	.	.	.	.	.	.	.	.	.	.
16d\LL	.	.	16d\LL	.	.	.	8d\	proe-	.	.	.	.	.	.	.	.	.	.	.	.	.	.
16c#\	6	.	16c#\	.	.	.	.	.	.	.	.	.	.	.	.	.	.	.	.	.	.	.
16B\	6	.	16B\	.	.	.	16d\	-li-	.	.	.	.	.	.	.	.	.	.	.	.	.	.
16A\JJ	.	.	16A\JJ	.	.	.	16d\	-um	.	.	.	.	.	.	.	.	.	.	.	.	.	.
*	*	*	*	*	*	*	*4\right	*	*	*	*	*	*	*	*	*	*	*	*	*	*	*
16B\LL	.	.	16B\LL	.	.	.	4d\	mag-	.	.	.	.	.	.	.	.	.	.	.	.	.	.
16F#\	6	.	16F#\	.	.	.	.	.	.	.	.	.	.	.	.	.	.	.	.	.	.	.
16G\	.	.	16G\	.	.	.	.	.	.	.	.	.	.	.	.	.	.	.	.	.	.	.
16F#\JJ	6	.	16F#\JJ	.	.	.	.	.	.	.	.	.	.	.	.	.	.	.	.	.	.	.
=4	=4	=4	=4	=4	=4	=4	=4	=4	=4	=4	=4	=4	=4	=4	=4	=4	=4	=4	=4	=4	=4	=4
!	!	!	!LO:TX:a:t=P:problem:mixedbeam	!	!	!	!	!	!	!	!	!	!	!	!	!	!	!	!	!	!	!
8E\L	7	.	8E\L	.	.	.	8.d\	-num	.	.	.	.	.	.	.	.	.	.	.	.	.	.
16A\L	7	.	16A\L	.	.	.	.	.	.	.	.	.	.	.	.	.	.	.	.	.	.	.
!LO:TX:a:t=P:problem:mixedbeam	!	!	!	!	!	!	!	!	!	!	!	!	!	!	!	!	!	!	!	!	!	!
16AA/JJ	.	.	16AA/JJ	.	.	.	16c#\	in	.	.	.	.	.	.	.	.	.	.	.	.	.	.
8D/	.	.	8D/	.	.	.	4d\	Coe-	.	.	.	.	.	.	.	.	.	.	.	.	.	.
8r	.	.	8r	.	.	.	.	.	.	.	.	.	.	.	.	.	.	.	.	.	.	.
!LO:PB:g=original	!	!	!	!	!	!	!	!	!	!	!	!	!	!	!	!	!	!	!	!	!	!
8r	.	.	8r	.	.	.	8d\	-lo	.	.	.	.	.	.	.	.	.	.	.	.	.	.
16D\LL	.	.	16D\LL	.	.	.	8r	.	.	.	.	.	.	.	.	.	.	.	.	.	.	.
16E\JJ	.	.	16E\JJ	.	.	.	.	.	.	.	.	.	.	.	.	.	.	.	.	.	.	.
8D\L	6	.	8D\L	.	.	.	4r	.	.	.	.	.	.	.	.	.	.	.	.	.	.	.
8C#\J	6	.	8C#\J	.	.	.	.	.	.	.	.	.	.	.	.	.	.	.	.	.	.	.
=5	=5	=5	=5	=5	=5	=5	=5	=5	=5	=5	=5	=5	=5	=5	=5	=5	=5	=5	=5	=5	=5	=5
!	!	!	!LO:PB:g=original	!	!	!	!	!	!	!	!	!	!	!	!	!	!	!	!	!	!	!
!	!	!	!	!	!	!	!LO:SIC:s:o=:v:brak kreski taktowej	!	!	!	!	!	!	!	!	!	!	!	!	!	!	!
16BB/LL	.	.	16BB/LL	00r	.	00r	1r	.	.	00r	.	.	00r	.	.	00r	.	.	00r	.	00r	.
16C#/	n	.	16C#/	.	.	.	.	.	.	.	.	.	.	.	.	.	.	.	.	.	.	.
16D/	.	.	16D/	.	.	.	.	.	.	.	.	.	.	.	.	.	.	.	.	.	.	.
16E/JJ	.	.	16E/JJ	.	.	.	.	.	.	.	.	.	.	.	.	.	.	.	.	.	.	.
16F#\LL	#	.	16F#\LL	.	.	.	.	.	.	.	.	.	.	.	.	.	.	.	.	.	.	.
16G#X\	.	.	16G#X\	.	.	.	.	.	.	.	.	.	.	.	.	.	.	.	.	.	.	.
16A#X\	.	.	16A#X\	.	.	.	.	.	.	.	.	.	.	.	.	.	.	.	.	.	.	.
16F#\JJ	.	.	16F#\JJ	.	.	.	.	.	.	.	.	.	.	.	.	.	.	.	.	.	.	.
16B\LL	.	.	16B\LL	.	.	.	.	.	.	.	.	.	.	.	.	.	.	.	.	.	.	.
16F#\	#	.	16F#\	.	.	.	.	.	.	.	.	.	.	.	.	.	.	.	.	.	.	.
16G#\	.	.	16G#\	.	.	.	.	.	.	.	.	.	.	.	.	.	.	.	.	.	.	.
16E\JJ	6	.	16E\JJ	.	.	.	.	.	.	.	.	.	.	.	.	.	.	.	.	.	.	.
8F#\	4	.	8F#\	.	.	.	.	.	.	.	.	.	.	.	.	.	.	.	.	.	.	.
16r	.	.	16r	.	.	.	.	.	.	.	.	.	.	.	.	.	.	.	.	.	.	.
16FF#/	#	.	16FF#/	.	.	.	.	.	.	.	.	.	.	.	.	.	.	.	.	.	.	.
=6	=6	=6	=6	=6	=6	=6	=6	=6	=6	=6	=6	=6	=6	=6	=6	=6	=6	=6	=6	=6	=6	=6
!	!	!	!	!	!	!	!LO:SIC:s:o=:v:brak kreski taktowej	!	!	!	!	!	!	!	!	!	!	!	!	!	!	!
8BB/	.	.	8BB/	.	.	.	8r	.	.	.	.	.	.	.	.	.	.	.	.	.	.	.
8r	.	.	8r	.	.	.	8BB/	Fac-	.	.	.	.	.	.	.	.	.	.	.	.	.	.
4r	.	.	4r	.	.	.	8D/	-tum	.	.	.	.	.	.	.	.	.	.	.	.	.	.
.	.	.	.	.	.	.	8F#\	est	.	.	.	.	.	.	.	.	.	.	.	.	.	.
8r	.	.	8r	.	.	.	8B\	proe-	.	.	.	.	.	.	.	.	.	.	.	.	.	.
8BB/	.	.	8BB/	.	.	.	16r	.	.	.	.	.	.	.	.	.	.	.	.	.	.	.
*	*	*	*	*	*	*	*16\right	*	*	*	*	*	*	*	*	*	*	*	*	*	*	*
.	.	.	.	.	.	.	16B\	-li-	.	.	.	.	.	.	.	.	.	.	.	.	.	.
8D\L	6	.	8D\L	.	.	.	8B\	-um	.	.	.	.	.	.	.	.	.	.	.	.	.	.
8F#\J	#	.	8F#\J	.	.	.	8r	.	.	.	.	.	.	.	.	.	.	.	.	.	.	.
=7	=7	=7	=7	=7	=7	=7	=7	=7	=7	=7	=7	=7	=7	=7	=7	=7	=7	=7	=7	=7	=7	=7
4B\	.	.	4B\	.	.	.	8.B\L	proe-	.	.	.	.	.	.	.	.	.	.	.	.	.	.
.	.	.	.	.	.	.	16c#\Jk	.	.	.	.	.	.	.	.	.	.	.	.	.	.	.
!	!	!	!	!	!	!	!LO:PB:g=original	!	!	!	!	!	!	!	!	!	!	!	!	!	!	!
4BB/	.	.	4BB/	.	.	.	8.d\L	.	.	.	.	.	.	.	.	.	.	.	.	.	.	.
.	.	.	.	.	.	.	16c#\Jk	.	.	.	.	.	.	.	.	.	.	.	.	.	.	.
2BB/	.	.	2BB/	.	.	.	16B\LL	.	.	.	.	.	.	.	.	.	.	.	.	.	.	.
*	*	*	*	*	*	*	*32\right	*	*	*	*	*	*	*	*	*	*	*	*	*	*	*
.	.	.	.	.	.	.	32A\L	.	.	.	.	.	.	.	.	.	.	.	.	.	.	.
.	.	.	.	.	.	.	32G\	.	.	.	.	.	.	.	.	.	.	.	.	.	.	.
.	.	.	.	.	.	.	32F#\	.	.	.	.	.	.	.	.	.	.	.	.	.	.	.
.	.	.	.	.	.	.	32E\	.	.	.	.	.	.	.	.	.	.	.	.	.	.	.
.	.	.	.	.	.	.	32D\	.	.	.	.	.	.	.	.	.	.	.	.	.	.	.
.	.	.	.	.	.	.	32C#\JJJ	.	.	.	.	.	.	.	.	.	.	.	.	.	.	.
.	.	.	.	.	.	.	8BB/	.	.	.	.	.	.	.	.	.	.	.	.	.	.	.
.	.	.	.	.	.	.	16BB/	-li-	.	.	.	.	.	.	.	.	.	.	.	.	.	.
.	.	.	.	.	.	.	16BB/	-um	.	.	.	.	.	.	.	.	.	.	.	.	.	.
=8	=8	=8	=8	=8	=8	=8	=8	=8	=8	=8	=8	=8	=8	=8	=8	=8	=8	=8	=8	=8	=8	=8
*	*	*	*	*	*	*	*	*ij	*	*	*	*	*	*	*	*	*	*	*	*	*	*
16r	.	.	16r	.	.	.	8B\	proe-	.	.	.	.	.	.	.	.	.	.	.	.	.	.
16BB/LL	.	.	16BB/LL	.	.	.	.	.	.	.	.	.	.	.	.	.	.	.	.	.	.	.
16D/	6	.	16D/	.	.	.	16BB/	-li-	.	.	.	.	.	.	.	.	.	.	.	.	.	.
16F#/JJ	#	.	16F#/JJ	.	.	.	16BB/	-um	.	.	.	.	.	.	.	.	.	.	.	.	.	.
*	*	*	*	*	*	*	*	*Xij	*	*	*	*	*	*	*	*	*	*	*	*	*	*
16D/LL	6	.	16D/LL	.	.	.	4r	.	.	.	.	.	.	.	.	.	.	.	.	.	.	.
16BB/	.	.	16BB/	.	.	.	.	.	.	.	.	.	.	.	.	.	.	.	.	.	.	.
16D/	6	.	16D/	.	.	.	.	.	.	.	.	.	.	.	.	.	.	.	.	.	.	.
16F#/JJ	#	.	16F#/JJ	.	.	.	.	.	.	.	.	.	.	.	.	.	.	.	.	.	.	.
!LO:PB:g=original	!	!	!	!	!	!	!	!	!	!	!	!	!	!	!	!	!	!	!	!	!	!
8B\L	.	.	8B\L	.	.	.	4B\	mag-	.	.	.	.	.	.	.	.	.	.	.	.	.	.
8G\J	6	.	8G\	.	.	.	.	.	.	.	.	.	.	.	.	.	.	.	.	.	.	.
8E\L	6	.	8E\	.	.	.	8.B\	-num	.	.	.	.	.	.	.	.	.	.	.	.	.	.
8F#\J	#	.	8F#\J	.	.	.	.	.	.	.	.	.	.	.	.	.	.	.	.	.	.	.
.	.	.	.	.	.	.	16c#\	in	.	.	.	.	.	.	.	.	.	.	.	.	.	.
=9	=9	=9	=9	=9	=9	=9	=9	=9	=9	=9	=9	=9	=9	=9	=9	=9	=9	=9	=9	=9	=9	=9
!!pagebreak:original
8BB/L	.	.	8BB/L	00r	.	00r	8c#\L	coe-	.	00r	.	.	00r	.	.	00r	.	.	00r	.	00r	.
16BB/L	.	.	16BB/L	.	.	.	8d\J	.	.	.	.	.	.	.	.	.	.	.	.	.	.	.
16AA/JJ	.	.	16AA/JJ	.	.	.	.	.	.	.	.	.	.	.	.	.	.	.	.	.	.	.
8GG/L	.	.	8GG/L	.	.	.	8d\	-lo	.	.	.	.	.	.	.	.	.	.	.	.	.	.
8FF#/J	.	.	8FF#/J	.	.	.	8r	.	.	.	.	.	.	.	.	.	.	.	.	.	.	.
!LO:TX:a:t=P:problem:mixedbeam	!	!	!LO:TX:a:t=P:problem:mixedbeam	!	!	!	!	!	!	!	!	!	!	!	!	!	!	!	!	!	!	!
8GG/L	.	.	8GG/L	.	.	.	4B\	mag-	.	.	.	.	.	.	.	.	.	.	.	.	.	.
16G\L	6	.	16G\L	.	.	.	.	.	.	.	.	.	.	.	.	.	.	.	.	.	.	.
16F#\JJ	6	.	16F#\JJ	.	.	.	.	.	.	.	.	.	.	.	.	.	.	.	.	.	.	.
!LO:TX:a:t=P:problem:mixedbeam	!	!	!LO:TX:a:t=P:problem:mixedbeam	!	!	!	!	!	!	!	!	!	!	!	!	!	!	!	!	!	!	!
8E/L	6 5	.	8E\L	.	.	.	8.B\	-num	.	.	.	.	.	.	.	.	.	.	.	.	.	.
16F#/L	#	.	16F#\L	.	.	.	.	.	.	.	.	.	.	.	.	.	.	.	.	.	.	.
16FF#/JJ	.	.	16FF#/JJ	.	.	.	16A#X\	in	.	.	.	.	.	.	.	.	.	.	.	.	.	.
=10	=10	=10	=10	=10	=10	=10	=10	=10	=10	=10	=10	=10	=10	=10	=10	=10	=10	=10	=10	=10	=10	=10
!	!	!	!LO:PB:g=original	!	!	!	!	!	!	!	!	!	!	!	!	!	!	!	!	!	!	!
4BB/	.	.	4BB/	.	.	.	4B\	coe-	.	.	.	.	.	.	.	.	.	.	.	.	.	.
4r	.	.	4r	.	.	.	8B\	-lo	.	.	.	.	.	.	.	.	.	.	.	.	.	.
.	.	.	.	.	.	.	8r	.	.	.	.	.	.	.	.	.	.	.	.	.	.	.
2r	.	.	2r	.	.	.	2r	.	.	.	.	.	.	.	.	.	.	.	.	.	.	.
=11	=11	=11	=11	=11	=11	=11	=11	=11	=11	=11	=11	=11	=11	=11	=11	=11	=11	=11	=11	=11	=11	=11
8r	.	.	8r	.	.	.	2r	.	.	.	.	.	.	.	.	.	.	.	.	.	.	.
16BB/LL	.	.	16BB/LL	.	.	.	.	.	.	.	.	.	.	.	.	.	.	.	.	.	.	.
16C#/JJ	6/	.	16C#/JJ	.	.	.	.	.	.	.	.	.	.	.	.	.	.	.	.	.	.	.
8D/L	6	.	8D/L	.	.	.	.	.	.	.	.	.	.	.	.	.	.	.	.	.	.	.
8C#/J	6/	.	8C#/J	.	.	.	.	.	.	.	.	.	.	.	.	.	.	.	.	.	.	.
8BB/L	.	.	8BB/L	.	.	.	8.B\	Mi-	.	.	.	.	.	.	.	.	.	.	.	.	.	.
8D/	6	.	8D/	.	.	.	.	.	.	.	.	.	.	.	.	.	.	.	.	.	.	.
.	.	.	.	.	.	.	16B\	-cha-	.	.	.	.	.	.	.	.	.	.	.	.	.	.
8C#/	6/	.	8C#/	.	.	.	8B\	-el	.	.	.	.	.	.	.	.	.	.	.	.	.	.
8BB/J	.	.	8BB/J	.	.	.	8r	.	.	.	.	.	.	.	.	.	.	.	.	.	.	.
=12	=12	=12	=12	=12	=12	=12	=12	=12	=12	=12	=12	=12	=12	=12	=12	=12	=12	=12	=12	=12	=12	=12
!	!	!	!	!	!	!	!LO:PB:g=original	!	!	!	!	!	!	!	!	!	!	!	!	!	!	!
8C#/L	6	.	8C#/L	.	.	.	8r	.	.	.	.	.	.	.	.	.	.	.	.	.	.	.
16C#/L	6	.	16C#/L	.	.	.	8A\	et	.	.	.	.	.	.	.	.	.	.	.	.	.	.
16BB/JJ	6/	.	16BB/JJ	.	.	.	.	.	.	.	.	.	.	.	.	.	.	.	.	.	.	.
8C#/L	.	.	8C#/L	.	.	.	8A\	Am-	.	.	.	.	.	.	.	.	.	.	.	.	.	.
8AA/J	8	.	8AA/J	.	.	.	16G\	-ge-	.	.	.	.	.	.	.	.	.	.	.	.	.	.
.	7	.	.	.	.	.	16A\	-li	.	.	.	.	.	.	.	.	.	.	.	.	.	.
8D/	.	.	8D/	.	.	.	8F#\	e-	.	.	.	.	.	.	.	.	.	.	.	.	.	.
8r	.	.	8r	.	.	.	8D\	-jus	.	.	.	.	.	.	.	.	.	.	.	.	.	.
8r	.	.	8r	.	.	.	8d\	prae-	.	.	.	.	.	.	.	.	.	.	.	.	.	.
8D/	.	.	8D/	.	.	.	16d\	-li-	.	.	.	.	.	.	.	.	.	.	.	.	.	.
.	.	.	.	.	.	.	16d\	-a-	.	.	.	.	.	.	.	.	.	.	.	.	.	.
=13	=13	=13	=13	=13	=13	=13	=13	=13	=13	=13	=13	=13	=13	=13	=13	=13	=13	=13	=13	=13	=13	=13
8E\	6/	.	8E\	00r	.	00r	8c#\L	-ban-	.	00r	.	.	00r	.	.	00r	.	.	00r	.	00r	.
8r	.	.	8r	.	.	.	32c#\LL	.	.	.	.	.	.	.	.	.	.	.	.	.	.	.
.	.	.	.	.	.	.	32d\	.	.	.	.	.	.	.	.	.	.	.	.	.	.	.
.	.	.	.	.	.	.	32c#\	.	.	.	.	.	.	.	.	.	.	.	.	.	.	.
.	.	.	.	.	.	.	32B\JJJ	.	.	.	.	.	.	.	.	.	.	.	.	.	.	.
8F#\	.	.	8F#\	.	.	.	8A\L	.	.	.	.	.	.	.	.	.	.	.	.	.	.	.
8r	.	.	8r	.	.	.	32F#\LL	.	.	.	.	.	.	.	.	.	.	.	.	.	.	.
.	.	.	.	.	.	.	32E\	.	.	.	.	.	.	.	.	.	.	.	.	.	.	.
.	.	.	.	.	.	.	32F#\	.	.	.	.	.	.	.	.	.	.	.	.	.	.	.
.	.	.	.	.	.	.	32D\JJJ	.	.	.	.	.	.	.	.	.	.	.	.	.	.	.
8A\	.	.	8A\	.	.	.	8A\	.	.	.	.	.	.	.	.	.	.	.	.	.	.	.
8r	.	.	8r	.	.	.	16AA/	-tur	.	.	.	.	.	.	.	.	.	.	.	.	.	.
.	.	.	.	.	.	.	16r	.	.	.	.	.	.	.	.	.	.	.	.	.	.	.
8r	.	.	8r	.	.	.	8A\	prae-	.	.	.	.	.	.	.	.	.	.	.	.	.	.
8AA/	.	.	8AA/	.	.	.	16A\	-li-	.	.	.	.	.	.	.	.	.	.	.	.	.	.
.	.	.	.	.	.	.	16A\	-a-	.	.	.	.	.	.	.	.	.	.	.	.	.	.
=14	=14	=14	=14	=14	=14	=14	=14	=14	=14	=14	=14	=14	=14	=14	=14	=14	=14	=14	=14	=14	=14	=14
8D\L	.	.	8D\L	.	.	.	4.A\	-ban-	.	.	.	.	.	.	.	.	.	.	.	.	.	.
16D\L	.	.	16D\L	.	.	.	.	.	.	.	.	.	.	.	.	.	.	.	.	.	.	.
16E\JJ	6	.	16E\JJ	.	.	.	.	.	.	.	.	.	.	.	.	.	.	.	.	.	.	.
8F#\L	6	.	8F#\L	.	.	.	.	.	.	.	.	.	.	.	.	.	.	.	.	.	.	.
8D\J	.	.	8D\J	.	.	.	16B\LL	.	.	.	.	.	.	.	.	.	.	.	.	.	.	.
!	!	!	!	!	!	!	!LO:N:vis=16	!	!	!	!	!	!	!	!	!	!	!	!	!	!	!
.	.	.	.	.	.	.	32A\L	.	.	.	.	.	.	.	.	.	.	.	.	.	.	.
!	!	!	!	!	!	!	!LO:N:vis=16	!	!	!	!	!	!	!	!	!	!	!	!	!	!	!
.	.	.	.	.	.	.	32B\JJJ	.	.	.	.	.	.	.	.	.	.	.	.	.	.	.
8AA/L	.	.	8AA/L	.	.	.	4.A\	.	.	.	.	.	.	.	.	.	.	.	.	.	.	.
16AA/L	.	.	16AA/L	.	.	.	.	.	.	.	.	.	.	.	.	.	.	.	.	.	.	.
16BB/JJ	6/	.	16BB/JJ	.	.	.	.	.	.	.	.	.	.	.	.	.	.	.	.	.	.	.
8C#/L	6	.	8C#/L	.	.	.	.	.	.	.	.	.	.	.	.	.	.	.	.	.	.	.
8AA/J	.	.	8AA/J	.	.	.	16B\LL	.	.	.	.	.	.	.	.	.	.	.	.	.	.	.
!	!	!	!	!	!	!	!LO:N:vis=16	!	!	!	!	!	!	!	!	!	!	!	!	!	!	!
.	.	.	.	.	.	.	32A\L	.	.	.	.	.	.	.	.	.	.	.	.	.	.	.
!	!	!	!	!	!	!	!LO:N:vis=16	!	!	!	!	!	!	!	!	!	!	!	!	!	!	!
.	.	.	.	.	.	.	32B\JJJ	.	.	.	.	.	.	.	.	.	.	.	.	.	.	.
=15	=15	=15	=15	=15	=15	=15	=15	=15	=15	=15	=15	=15	=15	=15	=15	=15	=15	=15	=15	=15	=15	=15
8D\L	.	.	8D\L	.	.	.	4.A\	.	.	.	.	.	.	.	.	.	.	.	.	.	.	.
8E\	.	.	8E\	.	.	.	.	.	.	.	.	.	.	.	.	.	.	.	.	.	.	.
8F#\	.	.	8F#\	.	.	.	.	.	.	.	.	.	.	.	.	.	.	.	.	.	.	.
8C#\J	6	.	8C#\J	.	.	.	16B\LL	.	.	.	.	.	.	.	.	.	.	.	.	.	.	.
!	!	!	!	!	!	!	!LO:N:vis=16	!	!	!	!	!	!	!	!	!	!	!	!	!	!	!
.	.	.	.	.	.	.	32A\L	.	.	.	.	.	.	.	.	.	.	.	.	.	.	.
!	!	!	!	!	!	!	!LO:N:vis=16	!	!	!	!	!	!	!	!	!	!	!	!	!	!	!
.	.	.	.	.	.	.	32B\JJJ	.	.	.	.	.	.	.	.	.	.	.	.	.	.	.
2D/	.	.	2D/	.	.	.	8A\L	.	.	.	.	.	.	.	.	.	.	.	.	.	.	.
.	.	.	.	.	.	.	8B\J	.	.	.	.	.	.	.	.	.	.	.	.	.	.	.
.	.	.	.	.	.	.	16A\LL	.	.	.	.	.	.	.	.	.	.	.	.	.	.	.
.	.	.	.	.	.	.	16G\	.	.	.	.	.	.	.	.	.	.	.	.	.	.	.
.	.	.	.	.	.	.	16F#\	.	.	.	.	.	.	.	.	.	.	.	.	.	.	.
.	.	.	.	.	.	.	16E\JJ	.	.	.	.	.	.	.	.	.	.	.	.	.	.	.
=16	=16	=16	=16	=16	=16	=16	=16	=16	=16	=16	=16	=16	=16	=16	=16	=16	=16	=16	=16	=16	=16	=16
!	!	!	!LO:PB:g=original	!	!	!	!LO:PB:g=original	!	!	!	!	!	!	!	!	!	!	!	!	!	!	!
8D/	.	.	8D/	.	.	.	16D\LL	.	.	.	.	.	.	.	.	.	.	.	.	.	.	.
.	.	.	.	.	.	.	16A\	.	.	.	.	.	.	.	.	.	.	.	.	.	.	.
8r	.	.	8r	.	.	.	16B\	.	.	.	.	.	.	.	.	.	.	.	.	.	.	.
.	.	.	.	.	.	.	16c#\JJ	.	.	.	.	.	.	.	.	.	.	.	.	.	.	.
8D/	.	.	8D/	.	.	.	8d\	.	.	.	.	.	.	.	.	.	.	.	.	.	.	.
8r	.	.	8r	.	.	.	32D\LLL	.	.	.	.	.	.	.	.	.	.	.	.	.	.	.
.	.	.	.	.	.	.	32F#\J	.	.	.	.	.	.	.	.	.	.	.	.	.	.	.
.	.	.	.	.	.	.	16D\JJ	.	.	.	.	.	.	.	.	.	.	.	.	.	.	.
8D/	.	.	8D/	.	.	.	32F#\LLL	.	.	.	.	.	.	.	.	.	.	.	.	.	.	.
.	.	.	.	.	.	.	32A\J	.	.	.	.	.	.	.	.	.	.	.	.	.	.	.
.	.	.	.	.	.	.	16F#\JJ	.	.	.	.	.	.	.	.	.	.	.	.	.	.	.
8r	.	.	8r	.	.	.	32A\LLL	.	.	.	.	.	.	.	.	.	.	.	.	.	.	.
.	.	.	.	.	.	.	32c#\J	.	.	.	.	.	.	.	.	.	.	.	.	.	.	.
.	.	.	.	.	.	.	16A\JJ	.	.	.	.	.	.	.	.	.	.	.	.	.	.	.
8D\L	.	.	8D\L	.	.	.	8d\	.	.	.	.	.	.	.	.	.	.	.	.	.	.	.
16F#\L	.	.	16F#\L	.	.	.	16D/	-tur	.	.	.	.	.	.	.	.	.	.	.	.	.	.
16D\JJ	.	.	16D\JJ	.	.	.	16r	.	.	.	.	.	.	.	.	.	.	.	.	.	.	.
=17	=17	=17	=17	=17	=17	=17	=17	=17	=17	=17	=17	=17	=17	=17	=17	=17	=17	=17	=17	=17	=17	=17
!!pagebreak:original
8BB/L	.	.	8BB/L	00r	.	00r	4r	.	.	00r	.	.	00r	.	.	00r	.	.	00r	.	00r	.
16D/L	.	.	16D/L	.	.	.	.	.	.	.	.	.	.	.	.	.	.	.	.	.	.	.
16BB/JJ	.	.	16BB/JJ	.	.	.	.	.	.	.	.	.	.	.	.	.	.	.	.	.	.	.
8AA#X/L	.	.	8AA#X/L	.	.	.	8F#\	prae-	.	.	.	.	.	.	.	.	.	.	.	.	.	.
8FF#/J	.	.	8FF#/J	.	.	.	16F#\	-li-	.	.	.	.	.	.	.	.	.	.	.	.	.	.
.	.	.	.	.	.	.	16F#\	-a-	.	.	.	.	.	.	.	.	.	.	.	.	.	.
8BB/L	.	.	8BB/L	.	.	.	4.F#\	-ban-	.	.	.	.	.	.	.	.	.	.	.	.	.	.
16BB/L	.	.	16BB/L	.	.	.	.	.	.	.	.	.	.	.	.	.	.	.	.	.	.	.
16C#/JJ	6/	.	16C#/JJ	.	.	.	.	.	.	.	.	.	.	.	.	.	.	.	.	.	.	.
8D/L	6	.	8D/L	.	.	.	.	.	.	.	.	.	.	.	.	.	.	.	.	.	.	.
8BB/J	.	.	8BB/J	.	.	.	16G\LL	.	.	.	.	.	.	.	.	.	.	.	.	.	.	.
!	!	!	!	!	!	!	!LO:N:vis=16	!	!	!	!	!	!	!	!	!	!	!	!	!	!	!
.	.	.	.	.	.	.	32F#\L	.	.	.	.	.	.	.	.	.	.	.	.	.	.	.
!	!	!	!	!	!	!	!LO:N:vis=16	!	!	!	!	!	!	!	!	!	!	!	!	!	!	!
.	.	.	.	.	.	.	32G\JJJ	.	.	.	.	.	.	.	.	.	.	.	.	.	.	.
=18	=18	=18	=18	=18	=18	=18	=18	=18	=18	=18	=18	=18	=18	=18	=18	=18	=18	=18	=18	=18	=18	=18
!	!LO:PB:g=original	!	!	!	!	!	!	!	!	!	!	!	!	!	!	!	!	!	!	!	!	!
!LO:TX:a:t=P:problem:mixedbeam	!	!	!LO:TX:a:t=P:problem:mixedbeam	!	!	!	!	!	!	!	!	!	!	!	!	!	!	!	!	!	!	!
8F#\L	.	.	8F#\L	.	.	.	4.F#\	.	.	.	.	.	.	.	.	.	.	.	.	.	.	.
8FF#/	.	.	8FF#/	.	.	.	.	.	.	.	.	.	.	.	.	.	.	.	.	.	.	.
8AA#X/	.	.	8AA#X/	.	.	.	.	.	.	.	.	.	.	.	.	.	.	.	.	.	.	.
8FF#/J	.	.	8FF#/J	.	.	.	16G\LL	.	.	.	.	.	.	.	.	.	.	.	.	.	.	.
!	!	!	!	!	!	!	!LO:N:vis=16	!	!	!	!	!	!	!	!	!	!	!	!	!	!	!
.	.	.	.	.	.	.	32F#\L	.	.	.	.	.	.	.	.	.	.	.	.	.	.	.
!	!	!	!	!	!	!	!LO:N:vis=16	!	!	!	!	!	!	!	!	!	!	!	!	!	!	!
.	.	.	.	.	.	.	32G\JJJ	.	.	.	.	.	.	.	.	.	.	.	.	.	.	.
4BB/	.	.	4BB/	.	.	.	32F#\LLL	.	.	.	.	.	.	.	.	.	.	.	.	.	.	.
.	.	.	.	.	.	.	32B\	.	.	.	.	.	.	.	.	.	.	.	.	.	.	.
.	.	.	.	.	.	.	32A\	.	.	.	.	.	.	.	.	.	.	.	.	.	.	.
.	.	.	.	.	.	.	32G\	.	.	.	.	.	.	.	.	.	.	.	.	.	.	.
.	.	.	.	.	.	.	32F#\	.	.	.	.	.	.	.	.	.	.	.	.	.	.	.
.	.	.	.	.	.	.	32E\	.	.	.	.	.	.	.	.	.	.	.	.	.	.	.
.	.	.	.	.	.	.	32D\	.	.	.	.	.	.	.	.	.	.	.	.	.	.	.
.	.	.	.	.	.	.	32C#\JJJ	.	.	.	.	.	.	.	.	.	.	.	.	.	.	.
4r	.	.	4r	.	.	.	8BB/	.	.	.	.	.	.	.	.	.	.	.	.	.	.	.
.	.	.	.	.	.	.	8BB/	-tur	.	.	.	.	.	.	.	.	.	.	.	.	.	.
=19	=19	=19	=19	=19	=19	=19	=19	=19	=19	=19	=19	=19	=19	=19	=19	=19	=19	=19	=19	=19	=19	=19
!!pagebreak:original
[1BB/	.	.	1BB/	.	.	.	8B\	prae-	.	.	.	.	.	.	.	.	.	.	.	.	.	.
.	.	.	.	.	.	.	16B\	-li-	.	.	.	.	.	.	.	.	.	.	.	.	.	.
.	.	.	.	.	.	.	16d\	-a-	.	.	.	.	.	.	.	.	.	.	.	.	.	.
.	.	.	.	.	.	.	8B\	-ban-	.	.	.	.	.	.	.	.	.	.	.	.	.	.
.	.	.	.	.	.	.	8F#\	-tur	.	.	.	.	.	.	.	.	.	.	.	.	.	.
!	!	!	!	!	!	!	!LO:PB:g=original	!	!	!	!	!	!	!	!	!	!	!	!	!	!	!
.	.	.	.	.	.	.	8B\	prae-	.	.	.	.	.	.	.	.	.	.	.	.	.	.
.	.	.	.	.	.	.	16B\	-li-	.	.	.	.	.	.	.	.	.	.	.	.	.	.
.	.	.	.	.	.	.	16d\	-a-	.	.	.	.	.	.	.	.	.	.	.	.	.	.
.	.	.	.	.	.	.	8B\	-ban-	.	.	.	.	.	.	.	.	.	.	.	.	.	.
.	.	.	.	.	.	.	8F#\	-tur	.	.	.	.	.	.	.	.	.	.	.	.	.	.
=20	=20	=20	=20	=20	=20	=20	=20	=20	=20	=20	=20	=20	=20	=20	=20	=20	=20	=20	=20	=20	=20	=20
2BB/]	.	.	2BB/	.	.	.	8D/	prae-	.	.	.	.	.	.	.	.	.	.	.	.	.	.
.	.	.	.	.	.	.	16D/	-li-	.	.	.	.	.	.	.	.	.	.	.	.	.	.
.	.	.	.	.	.	.	16F#/	-a-	.	.	.	.	.	.	.	.	.	.	.	.	.	.
.	.	.	.	.	.	.	8D/	-ban-	.	.	.	.	.	.	.	.	.	.	.	.	.	.
.	.	.	.	.	.	.	8BB/	-tur	.	.	.	.	.	.	.	.	.	.	.	.	.	.
8BB/L	.	.	8BB/L	.	.	.	4r	.	.	.	.	.	.	.	.	.	.	.	.	.	.	.
16BB/L	.	.	16BB/L	.	.	.	.	.	.	.	.	.	.	.	.	.	.	.	.	.	.	.
16D/JJ	.	.	16D/JJ	.	.	.	.	.	.	.	.	.	.	.	.	.	.	.	.	.	.	.
8BB/L	.	.	8BB/L	.	.	.	8F#\	cum	.	.	.	.	.	.	.	.	.	.	.	.	.	.
8GG/J	.	.	8FF#/J	.	.	.	8G\	Dra-	.	.	.	.	.	.	.	.	.	.	.	.	.	.
=21	=21	=21	=21	=21	=21	=21	=21	=21	=21	=21	=21	=21	=21	=21	=21	=21	=21	=21	=21	=21	=21	=21
8.AA/L	7	.	8.AA/L	00r	.	00r	4.G\	-co-	.	00r	.	.	00r	.	.	00r	.	.	00r	.	00r	.
16BB/Jk	6	.	16BB/Jk	.	.	.	.	.	.	.	.	.	.	.	.	.	.	.	.	.	.	.
4C#/	.	.	4C#/	.	.	.	.	.	.	.	.	.	.	.	.	.	.	.	.	.	.	.
.	.	.	.	.	.	.	16F#\LL	.	.	.	.	.	.	.	.	.	.	.	.	.	.	.
.	.	.	.	.	.	.	16E\JJ	.	.	.	.	.	.	.	.	.	.	.	.	.	.	.
4D/	.	.	4D/	.	.	.	8.F#\L	.	.	.	.	.	.	.	.	.	.	.	.	.	.	.
.	.	.	.	.	.	.	32E\LL	.	.	.	.	.	.	.	.	.	.	.	.	.	.	.
.	.	.	.	.	.	.	32D\JJJ	.	.	.	.	.	.	.	.	.	.	.	.	.	.	.
!	!	!	!	!	!	!	!LO:TX:a:t=P:problem:mixedbeam	!	!	!	!	!	!	!	!	!	!	!	!	!	!	!
8A\	.	.	8A\	.	.	.	8.A\L	.	.	.	.	.	.	.	.	.	.	.	.	.	.	.
16r	.	.	16r	.	.	.	.	.	.	.	.	.	.	.	.	.	.	.	.	.	.	.
16AA/	.	.	16AA/	.	.	.	16AA/Jk	.	.	.	.	.	.	.	.	.	.	.	.	.	.	.
=22	=22	=22	=22	=22	=22	=22	=22	=22	=22	=22	=22	=22	=22	=22	=22	=22	=22	=22	=22	=22	=22	=22
8D\L	.	.	8D\L	.	.	.	8D/	-ne	.	.	.	.	.	.	.	.	.	.	.	.	.	.
16F#\L	6	.	16F#\L	.	.	.	8r	.	.	.	.	.	.	.	.	.	.	.	.	.	.	.
16A\JJ	.	.	16A\JJ	.	.	.	.	.	.	.	.	.	.	.	.	.	.	.	.	.	.	.
!	!	!	!LO:PB:g=original	!	!	!	!	!	!	!	!	!	!	!	!	!	!	!	!	!	!	!
8F#\L	6	.	8F#\L	.	.	.	4r	.	.	.	.	.	.	.	.	.	.	.	.	.	.	.
8D\J	6	.	8D\J	.	.	.	.	.	.	.	.	.	.	.	.	.	.	.	.	.	.	.
16C#/LL	6	.	16C#/LL	.	.	.	2r	.	.	.	.	.	.	.	.	.	.	.	.	.	.	.
16E/	.	.	16E/	.	.	.	.	.	.	.	.	.	.	.	.	.	.	.	.	.	.	.
16C#/	.	.	16C#/	.	.	.	.	.	.	.	.	.	.	.	.	.	.	.	.	.	.	.
16E/JJ	.	.	16E/JJ	.	.	.	.	.	.	.	.	.	.	.	.	.	.	.	.	.	.	.
16AA/LL	.	.	16AA/LL	.	.	.	.	.	.	.	.	.	.	.	.	.	.	.	.	.	.	.
16C#/	6	.	16C#/	.	.	.	.	.	.	.	.	.	.	.	.	.	.	.	.	.	.	.
16BB/	.	.	16BB/	.	.	.	.	.	.	.	.	.	.	.	.	.	.	.	.	.	.	.
16AA/JJ	6	.	16AA/JJ	.	.	.	.	.	.	.	.	.	.	.	.	.	.	.	.	.	.	.
=23	=23	=23	=23	=23	=23	=23	=23	=23	=23	=23	=23	=23	=23	=23	=23	=23	=23	=23	=23	=23	=23	=23
8D/	.	.	8D/	.	.	.	4d\	Dra-	.	.	.	.	.	.	.	.	.	.	.	.	.	.
8r	.	.	8r	.	.	.	.	.	.	.	.	.	.	.	.	.	.	.	.	.	.	.
8r	.	.	8r	.	.	.	8D/	-co	.	.	.	.	.	.	.	.	.	.	.	.	.	.
8D/	.	.	8D/	.	.	.	8d\	pu-	.	.	.	.	.	.	.	.	.	.	.	.	.	.
4E\	6	.	4E\	.	.	.	16c#\LL	-gna-	.	.	.	.	.	.	.	.	.	.	.	.	.	.
.	.	.	.	.	.	.	16e\	.	.	.	.	.	.	.	.	.	.	.	.	.	.	.
.	.	.	.	.	.	.	16c#\	.	.	.	.	.	.	.	.	.	.	.	.	.	.	.
.	.	.	.	.	.	.	16e\JJ	.	.	.	.	.	.	.	.	.	.	.	.	.	.	.
!LO:PB:g=original	!	!	!	!	!	!	!	!	!	!	!	!	!	!	!	!	!	!	!	!	!	!
8r	.	.	8r	.	.	.	16A\LL	.	.	.	.	.	.	.	.	.	.	.	.	.	.	.
.	.	.	.	.	.	.	16c#\	.	.	.	.	.	.	.	.	.	.	.	.	.	.	.
8E\	6 5	.	8E\	.	.	.	16B\	.	.	.	.	.	.	.	.	.	.	.	.	.	.	.
.	.	.	.	.	.	.	16A\JJ	.	.	.	.	.	.	.	.	.	.	.	.	.	.	.
=24	=24	=24	=24	=24	=24	=24	=24	=24	=24	=24	=24	=24	=24	=24	=24	=24	=24	=24	=24	=24	=24	=24
16F#\LL	6	.	16F#\LL	.	.	.	8d\	.	.	.	.	.	.	.	.	.	.	.	.	.	.	.
16A\	.	.	16A\	.	.	.	.	.	.	.	.	.	.	.	.	.	.	.	.	.	.	.
16F#\	.	.	16F#\	.	.	.	8d\	-bat	.	.	.	.	.	.	.	.	.	.	.	.	.	.
16A\JJ	.	.	16A\JJ	.	.	.	.	.	.	.	.	.	.	.	.	.	.	.	.	.	.	.
16D\LL	.	.	16D\LL	.	.	.	4r	.	.	.	.	.	.	.	.	.	.	.	.	.	.	.
16F#\	6	.	16F#\	.	.	.	.	.	.	.	.	.	.	.	.	.	.	.	.	.	.	.
16E\	6	.	16E\	.	.	.	.	.	.	.	.	.	.	.	.	.	.	.	.	.	.	.
16D\JJ	6	.	16D\JJ	.	.	.	.	.	.	.	.	.	.	.	.	.	.	.	.	.	.	.
!	!	!	!	!	!	!	!LO:PB:g=original	!	!	!	!	!	!	!	!	!	!	!	!	!	!	!
16C#/LL	6	.	16C#/LL	.	.	.	4A\	Dra-	.	.	.	.	.	.	.	.	.	.	.	.	.	.
16E/	.	.	16E/	.	.	.	.	.	.	.	.	.	.	.	.	.	.	.	.	.	.	.
16C#/	.	.	16C#/	.	.	.	.	.	.	.	.	.	.	.	.	.	.	.	.	.	.	.
16E/JJ	.	.	16E/JJ	.	.	.	.	.	.	.	.	.	.	.	.	.	.	.	.	.	.	.
16AA/LL	.	.	16AA/LL	.	.	.	8A\	-co	.	.	.	.	.	.	.	.	.	.	.	.	.	.
16C#/	6	.	16C#/	.	.	.	.	.	.	.	.	.	.	.	.	.	.	.	.	.	.	.
16BB/	6/	.	16BB/	.	.	.	8A\	pu-	.	.	.	.	.	.	.	.	.	.	.	.	.	.
16AA/JJ	.	.	16AA/JJ	.	.	.	.	.	.	.	.	.	.	.	.	.	.	.	.	.	.	.
=25	=25	=25	=25	=25	=25	=25	=25	=25	=25	=25	=25	=25	=25	=25	=25	=25	=25	=25	=25	=25	=25	=25
8D/L	.	.	8D/L	00r	.	00r	16F#\LL	-gna-	.	00r	.	.	00r	.	.	00r	.	.	00r	.	00r	.
.	.	.	.	.	.	.	16A\	.	.	.	.	.	.	.	.	.	.	.	.	.	.	.
8D/J	.	.	8D/J	.	.	.	16F#\	.	.	.	.	.	.	.	.	.	.	.	.	.	.	.
.	.	.	.	.	.	.	16A\JJ	.	.	.	.	.	.	.	.	.	.	.	.	.	.	.
8r	.	.	8r	.	.	.	16D\LL	.	.	.	.	.	.	.	.	.	.	.	.	.	.	.
.	.	.	.	.	.	.	16F#\	.	.	.	.	.	.	.	.	.	.	.	.	.	.	.
8D/	.	.	8D/	.	.	.	16E\	.	.	.	.	.	.	.	.	.	.	.	.	.	.	.
.	.	.	.	.	.	.	16D\JJ	.	.	.	.	.	.	.	.	.	.	.	.	.	.	.
16C#/LL	.	.	16C#/LL	.	.	.	8A\	.	.	.	.	.	.	.	.	.	.	.	.	.	.	.
16E/	.	.	16E/	.	.	.	.	.	.	.	.	.	.	.	.	.	.	.	.	.	.	.
16C#/	.	.	16C#/	.	.	.	8A\	-bat	.	.	.	.	.	.	.	.	.	.	.	.	.	.
16E/JJ	.	.	16E/JJ	.	.	.	.	.	.	.	.	.	.	.	.	.	.	.	.	.	.	.
16AA/LL	.	.	16AA/LL	.	.	.	8r	.	.	.	.	.	.	.	.	.	.	.	.	.	.	.
16C#/	.	.	16C#/	.	.	.	.	.	.	.	.	.	.	.	.	.	.	.	.	.	.	.
16BB/	.	.	16BB/	.	.	.	8A\	pu-	.	.	.	.	.	.	.	.	.	.	.	.	.	.
16AA/JJ	.	.	16AA/JJ	.	.	.	.	.	.	.	.	.	.	.	.	.	.	.	.	.	.	.
=26	=26	=26	=26	=26	=26	=26	=26	=26	=26	=26	=26	=26	=26	=26	=26	=26	=26	=26	=26	=26	=26	=26
!!pagebreak:original
!	!	!	!LO:PB:g=original	!	!	!	!	!	!	!	!	!	!	!	!	!	!	!	!	!	!	!
8D/	.	.	8D/	.	.	.	16F#\LL	-gna-	.	.	.	.	.	.	.	.	.	.	.	.	.	.
.	.	.	.	.	.	.	16A\	.	.	.	.	.	.	.	.	.	.	.	.	.	.	.
8r	.	.	8r	.	.	.	16F#\	.	.	.	.	.	.	.	.	.	.	.	.	.	.	.
.	.	.	.	.	.	.	16A\JJ	.	.	.	.	.	.	.	.	.	.	.	.	.	.	.
8D/	.	.	8D/	.	.	.	16D\LL	.	.	.	.	.	.	.	.	.	.	.	.	.	.	.
.	.	.	.	.	.	.	16F#\	.	.	.	.	.	.	.	.	.	.	.	.	.	.	.
8r	.	.	8r	.	.	.	16E\	.	.	.	.	.	.	.	.	.	.	.	.	.	.	.
.	.	.	.	.	.	.	16D\JJ	.	.	.	.	.	.	.	.	.	.	.	.	.	.	.
8C#/	.	.	8C#/	.	.	.	16C#/LL	.	.	.	.	.	.	.	.	.	.	.	.	.	.	.
.	.	.	.	.	.	.	16E/	.	.	.	.	.	.	.	.	.	.	.	.	.	.	.
8r	.	.	8r	.	.	.	16C#/	.	.	.	.	.	.	.	.	.	.	.	.	.	.	.
.	.	.	.	.	.	.	16E/JJ	.	.	.	.	.	.	.	.	.	.	.	.	.	.	.
8AA/	.	.	8AA/	.	.	.	16AA/LL	.	.	.	.	.	.	.	.	.	.	.	.	.	.	.
.	.	.	.	.	.	.	16C#/	.	.	.	.	.	.	.	.	.	.	.	.	.	.	.
8r	.	.	8r	.	.	.	16BB/	.	.	.	.	.	.	.	.	.	.	.	.	.	.	.
.	.	.	.	.	.	.	16AA/JJ	.	.	.	.	.	.	.	.	.	.	.	.	.	.	.
=27	=27	=27	=27	=27	=27	=27	=27	=27	=27	=27	=27	=27	=27	=27	=27	=27	=27	=27	=27	=27	=27	=27
8D/	.	.	8D/	.	.	.	16D\LL	.	.	.	.	.	.	.	.	.	.	.	.	.	.	.
.	.	.	.	.	.	.	16A\	.	.	.	.	.	.	.	.	.	.	.	.	.	.	.
8r	.	.	8r	.	.	.	16F#\	.	.	.	.	.	.	.	.	.	.	.	.	.	.	.
.	.	.	.	.	.	.	16A\JJ	.	.	.	.	.	.	.	.	.	.	.	.	.	.	.
!	!	!	!	!	!	!	!LO:TX:a:t=P:problem:mixedbeam	!	!	!	!	!	!	!	!	!	!	!	!	!	!	!
8D/	6	.	8D/	.	.	.	16D/LL	.	.	.	.	.	.	.	.	.	.	.	.	.	.	.
.	.	.	.	.	.	.	16d\	.	.	.	.	.	.	.	.	.	.	.	.	.	.	.
8r	.	.	8r	.	.	.	16c#\	.	.	.	.	.	.	.	.	.	.	.	.	.	.	.
.	.	.	.	.	.	.	16d\JJ	.	.	.	.	.	.	.	.	.	.	.	.	.	.	.
8D/	6 4	.	8D/	.	.	.	16G#X\LL	.	.	.	.	.	.	.	.	.	.	.	.	.	.	.
.	.	.	.	.	.	.	16B\	.	.	.	.	.	.	.	.	.	.	.	.	.	.	.
8r	.	.	8r	.	.	.	16G#\	.	.	.	.	.	.	.	.	.	.	.	.	.	.	.
.	.	.	.	.	.	.	16B\JJ	.	.	.	.	.	.	.	.	.	.	.	.	.	.	.
8r	.	.	8r	.	.	.	16E\LL	.	.	.	.	.	.	.	.	.	.	.	.	.	.	.
.	.	.	.	.	.	.	16B\	.	.	.	.	.	.	.	.	.	.	.	.	.	.	.
!LO:PB:g=original	!	!	!	!	!	!	!	!	!	!	!	!	!	!	!	!	!	!	!	!	!	!
8C#/	.	.	8C#/	.	.	.	16C#\	.	.	.	.	.	.	.	.	.	.	.	.	.	.	.
.	.	.	.	.	.	.	16E\JJ	.	.	.	.	.	.	.	.	.	.	.	.	.	.	.
=28	=28	=28	=28	=28	=28	=28	=28	=28	=28	=28	=28	=28	=28	=28	=28	=28	=28	=28	=28	=28	=28	=28
!	!	!	!	!	!	!	!LO:PB:g=original	!	!	!	!	!	!	!	!	!	!	!	!	!	!	!
8AA/	.	.	8AA/	.	.	.	16AA/LL	.	.	.	.	.	.	.	.	.	.	.	.	.	.	.
.	.	.	.	.	.	.	16C#/	.	.	.	.	.	.	.	.	.	.	.	.	.	.	.
8r	.	.	8r	.	.	.	16AA/	.	.	.	.	.	.	.	.	.	.	.	.	.	.	.
.	.	.	.	.	.	.	16C#/JJ	.	.	.	.	.	.	.	.	.	.	.	.	.	.	.
8FF#/	.	.	8FF#/	.	.	.	8FF#/	.	.	.	.	.	.	.	.	.	.	.	.	.	.	.
8r	.	.	8r	.	.	.	8FF#/	-bat	.	.	.	.	.	.	.	.	.	.	.	.	.	.
4F#\	.	.	4F#\	.	.	.	8r	.	.	.	.	.	.	.	.	.	.	.	.	.	.	.
.	.	.	.	.	.	.	8F#\	pu-	.	.	.	.	.	.	.	.	.	.	.	.	.	.
4C#/	.	.	4C#/	.	.	.	8C#/	-gna-	.	.	.	.	.	.	.	.	.	.	.	.	.	.
.	.	.	.	.	.	.	16AA/	-bat	.	.	.	.	.	.	.	.	.	.	.	.	.	.
*	*	*	*	*	*	*	*	*ij	*	*	*	*	*	*	*	*	*	*	*	*	*	*
.	.	.	.	.	.	.	16C#/	pu-	.	.	.	.	.	.	.	.	.	.	.	.	.	.
=29	=29	=29	=29	=29	=29	=29	=29	=29	=29	=29	=29	=29	=29	=29	=29	=29	=29	=29	=29	=29	=29	=29
16D\LL	.	.	16D\LL	00r	.	00r	8D/	-gna-	.	00r	.	.	00r	.	.	00r	.	.	00r	.	00r	.
16A\	.	.	16A\	.	.	.	.	.	.	.	.	.	.	.	.	.	.	.	.	.	.	.
16F#\	.	.	16F#\	.	.	.	8D/	-bat	.	.	.	.	.	.	.	.	.	.	.	.	.	.
*	*	*	*	*	*	*	*	*Xij	*	*	*	*	*	*	*	*	*	*	*	*	*	*
16A\JJ	.	.	16A\JJ	.	.	.	.	.	.	.	.	.	.	.	.	.	.	.	.	.	.	.
16D\LL	.	.	16D\LL	.	.	.	8r	.	.	.	.	.	.	.	.	.	.	.	.	.	.	.
16F#\	6	.	16F#\	.	.	.	.	.	.	.	.	.	.	.	.	.	.	.	.	.	.	.
16E\	6	.	16E\	.	.	.	8D/	pu-	.	.	.	.	.	.	.	.	.	.	.	.	.	.
16D\JJ	.	.	16D\JJ	.	.	.	.	.	.	.	.	.	.	.	.	.	.	.	.	.	.	.
8C#/	.	.	8C#/	.	.	.	16C#\LL	-gna-	.	.	.	.	.	.	.	.	.	.	.	.	.	.
.	.	.	.	.	.	.	16E\	.	.	.	.	.	.	.	.	.	.	.	.	.	.	.
8r	.	.	8r	.	.	.	16C#\	.	.	.	.	.	.	.	.	.	.	.	.	.	.	.
.	.	.	.	.	.	.	16E\JJ	.	.	.	.	.	.	.	.	.	.	.	.	.	.	.
8AA/	.	.	8AA/	.	.	.	16AA/LL	.	.	.	.	.	.	.	.	.	.	.	.	.	.	.
.	.	.	.	.	.	.	16C#/	.	.	.	.	.	.	.	.	.	.	.	.	.	.	.
8r	.	.	8r	.	.	.	16BB/	.	.	.	.	.	.	.	.	.	.	.	.	.	.	.
.	.	.	.	.	.	.	16AA/JJ	.	.	.	.	.	.	.	.	.	.	.	.	.	.	.
=30	=30	=30	=30	=30	=30	=30	=30	=30	=30	=30	=30	=30	=30	=30	=30	=30	=30	=30	=30	=30	=30	=30
!!pagebreak:original
2.DD/	.	.	2.DD/	.	.	.	8D/L	.	.	.	.	.	.	.	.	.	.	.	.	.	.	.
.	.	.	.	.	.	.	32AA/LL	.	.	.	.	.	.	.	.	.	.	.	.	.	.	.
.	.	.	.	.	.	.	32BB/	.	.	.	.	.	.	.	.	.	.	.	.	.	.	.
.	.	.	.	.	.	.	32AA/	.	.	.	.	.	.	.	.	.	.	.	.	.	.	.
.	.	.	.	.	.	.	32GG/JJJ	.	.	.	.	.	.	.	.	.	.	.	.	.	.	.
.	.	.	.	.	.	.	32FF#/LLL	.	.	.	.	.	.	.	.	.	.	.	.	.	.	.
.	.	.	.	.	.	.	32AA/	.	.	.	.	.	.	.	.	.	.	.	.	.	.	.
.	.	.	.	.	.	.	32BB/	.	.	.	.	.	.	.	.	.	.	.	.	.	.	.
.	.	.	.	.	.	.	32C#/	.	.	.	.	.	.	.	.	.	.	.	.	.	.	.
.	.	.	.	.	.	.	32D/	.	.	.	.	.	.	.	.	.	.	.	.	.	.	.
.	.	.	.	.	.	.	32E/	.	.	.	.	.	.	.	.	.	.	.	.	.	.	.
.	.	.	.	.	.	.	32F#/	.	.	.	.	.	.	.	.	.	.	.	.	.	.	.
.	.	.	.	.	.	.	32D/JJJ	.	.	.	.	.	.	.	.	.	.	.	.	.	.	.
.	.	.	.	.	.	.	8.A\L	.	.	.	.	.	.	.	.	.	.	.	.	.	.	.
.	.	.	.	.	.	.	16B\Jk	.	.	.	.	.	.	.	.	.	.	.	.	.	.	.
4D/	.	.	4D/	.	.	.	32A\LLL	.	.	.	.	.	.	.	.	.	.	.	.	.	.	.
.	.	.	.	.	.	.	32G\	.	.	.	.	.	.	.	.	.	.	.	.	.	.	.
.	.	.	.	.	.	.	32F#\	.	.	.	.	.	.	.	.	.	.	.	.	.	.	.
.	.	.	.	.	.	.	32E\	.	.	.	.	.	.	.	.	.	.	.	.	.	.	.
.	.	.	.	.	.	.	32D\	.	.	.	.	.	.	.	.	.	.	.	.	.	.	.
.	.	.	.	.	.	.	32A\	.	.	.	.	.	.	.	.	.	.	.	.	.	.	.
.	.	.	.	.	.	.	32B\	.	.	.	.	.	.	.	.	.	.	.	.	.	.	.
.	.	.	.	.	.	.	32c#\JJJ	.	.	.	.	.	.	.	.	.	.	.	.	.	.	.
=31	=31	=31	=31	=31	=31	=31	=31	=31	=31	=31	=31	=31	=31	=31	=31	=31	=31	=31	=31	=31	=31	=31
8D/	.	.	8D/	.	.	.	8d\	.	.	.	.	.	.	.	.	.	.	.	.	.	.	.
8r	.	.	8r	.	.	.	8d\	-bat	.	.	.	.	.	.	.	.	.	.	.	.	.	.
!	!	!	!	!	!	!	!LO:PB:g=original	!	!	!	!	!	!	!	!	!	!	!	!	!	!	!
8r	.	.	8r	.	.	.	8r	.	.	.	.	.	.	.	.	.	.	.	.	.	.	.
8D/	.	.	8D/	.	.	.	8d\	et	.	.	.	.	.	.	.	.	.	.	.	.	.	.
8E\	#	.	8E\	.	.	.	8B\	An-	.	.	.	.	.	.	.	.	.	.	.	.	.	.
8r	.	.	8ryy	.	.	.	16B\	-ge-	.	.	.	.	.	.	.	.	.	.	.	.	.	.
.	.	.	.	.	.	.	16F#\	-li	.	.	.	.	.	.	.	.	.	.	.	.	.	.
!	!	!	!LO:PB:g=original	!	!	!	!	!	!	!	!	!	!	!	!	!	!	!	!	!	!	!
!	!	!	!LO:TX:a:t=P:problem:mixedbeam	!	!	!	!	!	!	!	!	!	!	!	!	!	!	!	!	!	!	!
8E\L	#	.	8E\L	.	.	.	4G#X\	e-	.	.	.	.	.	.	.	.	.	.	.	.	.	.
16E\L	.	.	16E\L	.	.	.	.	.	.	.	.	.	.	.	.	.	.	.	.	.	.	.
!LO:TX:a:t=P:problem:mixedbeam	!	!	!	!	!	!	!	!	!	!	!	!	!	!	!	!	!	!	!	!	!	!
16BB/JJ	6/	.	16BB/JJ	.	.	.	.	.	.	.	.	.	.	.	.	.	.	.	.	.	.	.
=32	=32	=32	=32	=32	=32	=32	=32	=32	=32	=32	=32	=32	=32	=32	=32	=32	=32	=32	=32	=32	=32	=32
8C#\L	.	.	8C#\L	.	.	.	8A\	-jus	.	.	.	.	.	.	.	.	.	.	.	.	.	.
16F#\L	.	.	16F#\L	.	.	.	8r	.	.	.	.	.	.	.	.	.	.	.	.	.	.	.
16C#\JJ	6	.	16C#\JJ	.	.	.	.	.	.	.	.	.	.	.	.	.	.	.	.	.	.	.
8D/L	6	.	8D/L	.	.	.	4r	.	.	.	.	.	.	.	.	.	.	.	.	.	.	.
16C#/L	6	.	16C#/L	.	.	.	.	.	.	.	.	.	.	.	.	.	.	.	.	.	.	.
16BB/JJ	6/	.	16BB/JJ	.	.	.	.	.	.	.	.	.	.	.	.	.	.	.	.	.	.	.
!LO:TX:a:t=P:problem:mixedbeam	!	!	!LO:TX:a:t=P:problem:mixedbeam	!	!	!	!	!	!	!	!	!	!	!	!	!	!	!	!	!	!	!
8E\L	.	.	8E\L	.	.	.	4r	.	.	.	.	.	.	.	.	.	.	.	.	.	.	.
8EE/J	.	.	8EE/J	.	.	.	.	.	.	.	.	.	.	.	.	.	.	.	.	.	.	.
8AA/	.	.	8AA/	.	.	.	8r	.	.	.	.	.	.	.	.	.	.	.	.	.	.	.
8r	.	.	8r	.	.	.	8A\	et	.	.	.	.	.	.	.	.	.	.	.	.	.	.
=33	=33	=33	=33	=33	=33	=33	=33	=33	=33	=33	=33	=33	=33	=33	=33	=33	=33	=33	=33	=33	=33	=33
!LO:PB:g=original	!	!	!	!	!	!	!	!	!	!	!	!	!	!	!	!	!	!	!	!	!	!
8r	.	.	8r	00r	.	00r	4B\	non	.	00r	.	.	00r	.	.	00r	.	.	00r	.	00r	.
8D/	6	.	8D/	.	.	.	.	.	.	.	.	.	.	.	.	.	.	.	.	.	.	.
8E\	6/	.	8E\	.	.	.	8c#\	prae-	.	.	.	.	.	.	.	.	.	.	.	.	.	.
8r	.	.	8r	.	.	.	16B\	-va-	.	.	.	.	.	.	.	.	.	.	.	.	.	.
.	5	.	.	.	.	.	16c#\	-lu-	.	.	.	.	.	.	.	.	.	.	.	.	.	.
8D/	6	.	8D/	.	.	.	16d\LL	-e-	.	.	.	.	.	.	.	.	.	.	.	.	.	.
.	5	.	.	.	.	.	16A\	.	.	.	.	.	.	.	.	.	.	.	.	.	.	.
8r	.	.	8r	.	.	.	16B\	.	.	.	.	.	.	.	.	.	.	.	.	.	.	.
.	.	.	.	.	.	.	16A\JJ	.	.	.	.	.	.	.	.	.	.	.	.	.	.	.
8D/	.	.	8D/	.	.	.	16G#X\LL	.	.	.	.	.	.	.	.	.	.	.	.	.	.	.
.	.	.	.	.	.	.	16A\	.	.	.	.	.	.	.	.	.	.	.	.	.	.	.
8r	.	.	8r	.	.	.	16F#\	.	.	.	.	.	.	.	.	.	.	.	.	.	.	.
.	.	.	.	.	.	.	16G#\JJ	.	.	.	.	.	.	.	.	.	.	.	.	.	.	.
=34	=34	=34	=34	=34	=34	=34	=34	=34	=34	=34	=34	=34	=34	=34	=34	=34	=34	=34	=34	=34	=34	=34
16C#/LL	6	.	16C#/LL	.	.	.	8A\	.	.	.	.	.	.	.	.	.	.	.	.	.	.	.
16D/	.	.	16D/	.	.	.	.	.	.	.	.	.	.	.	.	.	.	.	.	.	.	.
16C#/	6	.	16C#/	.	.	.	8AA/	-runt	.	.	.	.	.	.	.	.	.	.	.	.	.	.
16BB/JJ	6/	.	16BB/JJ	.	.	.	.	.	.	.	.	.	.	.	.	.	.	.	.	.	.	.
!LO:TX:a:t=P:problem:mixedbeam	!	!	!LO:TX:a:t=P:problem:mixedbeam	!	!	!	!	!	!	!	!	!	!	!	!	!	!	!	!	!	!	!
16AA/LL	.	.	16AA/LL	.	.	.	8A\	non	.	.	.	.	.	.	.	.	.	.	.	.	.	.
16A\	.	.	16A\	.	.	.	.	.	.	.	.	.	.	.	.	.	.	.	.	.	.	.
16G\	.	.	16G\	.	.	.	8r	.	.	.	.	.	.	.	.	.	.	.	.	.	.	.
16A\JJ	.	.	16A\JJ	.	.	.	.	.	.	.	.	.	.	.	.	.	.	.	.	.	.	.
*	*	*	*	*	*	*	*	*ij	*	*	*	*	*	*	*	*	*	*	*	*	*	*
8F#\L	6	.	8F#\L	.	.	.	8F#\	non	.	.	.	.	.	.	.	.	.	.	.	.	.	.
16E\L	6	.	16E\L	.	.	.	8r	.	.	.	.	.	.	.	.	.	.	.	.	.	.	.
16D\JJ	.	.	16D\JJ	.	.	.	.	.	.	.	.	.	.	.	.	.	.	.	.	.	.	.
16C#/LL	6	.	16C#/LL	.	.	.	8C#/	non	.	.	.	.	.	.	.	.	.	.	.	.	.	.
16AA/	.	.	16AA/	.	.	.	.	.	.	.	.	.	.	.	.	.	.	.	.	.	.	.
16BB/	6	.	16BB/	.	.	.	8r	.	.	.	.	.	.	.	.	.	.	.	.	.	.	.
16C#/JJ	.	.	16C#/JJ	.	.	.	.	.	.	.	.	.	.	.	.	.	.	.	.	.	.	.
=35	=35	=35	=35	=35	=35	=35	=35	=35	=35	=35	=35	=35	=35	=35	=35	=35	=35	=35	=35	=35	=35	=35
16D\LL	.	.	16D\LL	.	.	.	8D\	non	.	.	.	.	.	.	.	.	.	.	.	.	.	.
*	*	*	*	*	*	*	*	*Xij	*	*	*	*	*	*	*	*	*	*	*	*	*	*
16G\	6	.	16G\	.	.	.	.	.	.	.	.	.	.	.	.	.	.	.	.	.	.	.
16F#\	6	.	16F#\	.	.	.	8r	.	.	.	.	.	.	.	.	.	.	.	.	.	.	.
16E\JJ	6	.	16E\JJ	.	.	.	.	.	.	.	.	.	.	.	.	.	.	.	.	.	.	.
!LO:TX:a:t=P:problem:mixedbeam	!	!	!LO:TX:a:t=P:problem:mixedbeam	!	!	!	!	!	!	!	!	!	!	!	!	!	!	!	!	!	!	!
8D/L	.	.	8D/L	.	.	.	8r	.	.	.	.	.	.	.	.	.	.	.	.	.	.	.
8d\J	.	.	8d\J	.	.	.	8d\	non	.	.	.	.	.	.	.	.	.	.	.	.	.	.
!	!	!	!LO:PB:g=original	!	!	!	!	!	!	!	!	!	!	!	!	!	!	!	!	!	!	!
8B\L	6	.	8B\L	.	.	.	8B\	prae-	.	.	.	.	.	.	.	.	.	.	.	.	.	.
16A\L	.	.	16A\L	.	.	.	16A\	-va-	.	.	.	.	.	.	.	.	.	.	.	.	.	.
16G\JJ	.	.	16G\JJ	.	.	.	16G\	-lu-	.	.	.	.	.	.	.	.	.	.	.	.	.	.
!LO:TX:a:t=P:problem:mixedbeam	!	!	!LO:TX:a:t=P:problem:mixedbeam	!	!	!	!LO:TX:a:t=P:problem:mixedbeam	!	!	!	!	!	!	!	!	!	!	!	!	!	!	!
8A\L	4	.	8A\L	.	.	.	8.A\L	-e-	.	.	.	.	.	.	.	.	.	.	.	.	.	.
8AA/J	3	.	8AA/J	.	.	.	.	.	.	.	.	.	.	.	.	.	.	.	.	.	.	.
.	.	.	.	.	.	.	16AA/Jk	.	.	.	.	.	.	.	.	.	.	.	.	.	.	.
=36	=36	=36	=36	=36	=36	=36	=36	=36	=36	=36	=36	=36	=36	=36	=36	=36	=36	=36	=36	=36	=36	=36
!	!	!	!	!	!	!	!LO:PB:g=original	!	!	!	!	!	!	!	!	!	!	!	!	!	!	!
8D/L	.	.	8D/L	.	.	.	8D\	-runt	.	.	.	.	.	.	.	.	.	.	.	.	.	.
16D/L	.	.	16D/L	.	.	.	8r	.	.	.	.	.	.	.	.	.	.	.	.	.	.	.
16AA/JJ	.	.	16AA/JJ	.	.	.	.	.	.	.	.	.	.	.	.	.	.	.	.	.	.	.
8BB/L	.	.	8BB/L	.	.	.	4r	.	.	.	.	.	.	.	.	.	.	.	.	.	.	.
16C#/L	.	.	16C#/L	.	.	.	.	.	.	.	.	.	.	.	.	.	.	.	.	.	.	.
16D/JJ	.	.	16D/JJ	.	.	.	.	.	.	.	.	.	.	.	.	.	.	.	.	.	.	.
!LO:LB:g=original	!	!	!	!	!	!	!	!	!	!	!	!	!	!	!	!	!	!	!	!	!	!
8C#/L	6	.	8C#/L	.	.	.	4r	.	.	.	.	.	.	.	.	.	.	.	.	.	.	.
8BB/	.	.	8BB/	.	.	.	.	.	.	.	.	.	.	.	.	.	.	.	.	.	.	.
8C#/	6/	.	8C#/	.	.	.	8r	.	.	.	.	.	.	.	.	.	.	.	.	.	.	.
8AA/J	.	.	8AA/J	.	.	.	16A\	ne-	.	.	.	.	.	.	.	.	.	.	.	.	.	.
.	.	.	.	.	.	.	16E\	-que	.	.	.	.	.	.	.	.	.	.	.	.	.	.
=37	=37	=37	=37	=37	=37	=37	=37	=37	=37	=37	=37	=37	=37	=37	=37	=37	=37	=37	=37	=37	=37	=37
8D/L	.	.	8D/L	00r	.	00r	8F#\	lo-	.	00r	.	.	00r	.	.	00r	.	.	00r	.	00r	.
16D/L	.	.	16D/L	.	.	.	8F#\	-cus	.	.	.	.	.	.	.	.	.	.	.	.	.	.
16AA/JJ	.	.	16AA/JJ	.	.	.	.	.	.	.	.	.	.	.	.	.	.	.	.	.	.	.
8BB/L	.	.	8BB/L	.	.	.	8r	.	.	.	.	.	.	.	.	.	.	.	.	.	.	.
8GG#X/J	.	.	8GG#X/J	.	.	.	16E\	ne-	.	.	.	.	.	.	.	.	.	.	.	.	.	.
.	.	.	.	.	.	.	16BB/	-que	.	.	.	.	.	.	.	.	.	.	.	.	.	.
8AA/L	.	.	8AA/L	.	.	.	8C#/	lo-	.	.	.	.	.	.	.	.	.	.	.	.	.	.
16AA/L	.	.	16AA/L	.	.	.	8C#/	-cus	.	.	.	.	.	.	.	.	.	.	.	.	.	.
16BB/JJ	6/	.	16BB/JJ	.	.	.	.	.	.	.	.	.	.	.	.	.	.	.	.	.	.	.
8C#/L	.	.	8C#/L	.	.	.	8r	.	.	.	.	.	.	.	.	.	.	.	.	.	.	.
8AA/J	.	.	8AA/J	.	.	.	8C#/	in-	.	.	.	.	.	.	.	.	.	.	.	.	.	.
=38	=38	=38	=38	=38	=38	=38	=38	=38	=38	=38	=38	=38	=38	=38	=38	=38	=38	=38	=38	=38	=38	=38
!!pagebreak:original
4D/	.	.	4D/	.	.	.	8.D/	-ven-	.	.	.	.	.	.	.	.	.	.	.	.	.	.
.	.	.	.	.	.	.	16D/	-tus	.	.	.	.	.	.	.	.	.	.	.	.	.	.
8r	.	.	8r	.	.	.	8D/	est	.	.	.	.	.	.	.	.	.	.	.	.	.	.
8C#/	.	.	8C#/	.	.	.	8E\	e-	.	.	.	.	.	.	.	.	.	.	.	.	.	.
4D/	.	.	4D/	.	.	.	4F#\	-o-	.	.	.	.	.	.	.	.	.	.	.	.	.	.
8D\L	.	.	8D\L	.	.	.	8D/	-rum	.	.	.	.	.	.	.	.	.	.	.	.	.	.
8E\J	.	.	8E\J	.	.	.	8r	.	.	.	.	.	.	.	.	.	.	.	.	.	.	.
=39	=39	=39	=39	=39	=39	=39	=39	=39	=39	=39	=39	=39	=39	=39	=39	=39	=39	=39	=39	=39	=39	=39
8F#\L	.	.	8F#\L	.	.	.	8.A\	am-	.	.	.	.	.	.	.	.	.	.	.	.	.	.
8C#\J	6/	.	8C#\J	.	.	.	.	.	.	.	.	.	.	.	.	.	.	.	.	.	.	.
.	.	.	.	.	.	.	16G\	-pli-	.	.	.	.	.	.	.	.	.	.	.	.	.	.
8D/L	.	.	8D/L	.	.	.	8F#\	-us	.	.	.	.	.	.	.	.	.	.	.	.	.	.
8C#/J	.	.	8C#/J	.	.	.	8A\	in	.	.	.	.	.	.	.	.	.	.	.	.	.	.
!LO:TX:a:t=P:problem:mixedbeam	!	!	!LO:TX:a:t=P:problem:mixedbeam	!	!	!	!	!	!	!	!	!	!	!	!	!	!	!	!	!	!	!
*	*	*	*	*	*	*	*2\right	*	*	*	*	*	*	*	*	*	*	*	*	*	*	*
16BB/LL	.	.	16BB/LL	.	.	.	2d\	Coe-	.	.	.	.	.	.	.	.	.	.	.	.	.	.
16B\	.	.	16B\	.	.	.	.	.	.	.	.	.	.	.	.	.	.	.	.	.	.	.
16A\	.	.	16A\	.	.	.	.	.	.	.	.	.	.	.	.	.	.	.	.	.	.	.
16G\JJ	.	.	16G\JJ	.	.	.	.	.	.	.	.	.	.	.	.	.	.	.	.	.	.	.
8F#\L	6	.	8F#\L	.	.	.	.	.	.	.	.	.	.	.	.	.	.	.	.	.	.	.
16B\L	.	.	16B\L	.	.	.	.	.	.	.	.	.	.	.	.	.	.	.	.	.	.	.
16G\JJ	.	.	16G\JJ	.	.	.	.	.	.	.	.	.	.	.	.	.	.	.	.	.	.	.
=40	=40	=40	=40	=40	=40	=40	=40	=40	=40	=40	=40	=40	=40	=40	=40	=40	=40	=40	=40	=40	=40	=40
!	!	!	!LO:PB:g=original	!	!	!	!	!	!	!	!	!	!	!	!	!	!	!	!	!	!	!
4A\	.	.	4A\	.	.	.	8d\L	.	.	.	.	.	.	.	.	.	.	.	.	.	.	.
.	.	.	.	.	.	.	16c#\L	.	.	.	.	.	.	.	.	.	.	.	.	.	.	.
.	.	.	.	.	.	.	16B\JJ	.	.	.	.	.	.	.	.	.	.	.	.	.	.	.
8r	.	.	8r	.	.	.	(8.c#\L	.	.	.	.	.	.	.	.	.	.	.	.	.	.	.
8AA/	.	.	8AA/	.	.	.	.	.	.	.	.	.	.	.	.	.	.	.	.	.	.	.
.	.	.	.	.	.	.	16d\Jk)	.	.	.	.	.	.	.	.	.	.	.	.	.	.	.
8D/L	.	.	8D/L	.	.	.	4d\	-lo	.	.	.	.	.	.	.	.	.	.	.	.	.	.
16D/L	.	.	16D/L	.	.	.	.	.	.	.	.	.	.	.	.	.	.	.	.	.	.	.
16C#/JJ	.	.	16C#/JJ	.	.	.	.	.	.	.	.	.	.	.	.	.	.	.	.	.	.	.
8D\L	.	.	8D\L	.	.	.	4r	.	.	.	.	.	.	.	.	.	.	.	.	.	.	.
8E\J	6	.	8E\J	.	.	.	.	.	.	.	.	.	.	.	.	.	.	.	.	.	.	.
=41	=41	=41	=41	=41	=41	=41	=41	=41	=41	=41	=41	=41	=41	=41	=41	=41	=41	=41	=41	=41	=41	=41
!	!	!	!	!	!	!	!LO:LB:g=original	!	!	!	!	!	!	!	!	!	!	!	!	!	!	!
8F#\L	.	.	8F#\L	0r	.	0r	8.A\	am-	.	0r	.	.	0r	.	.	0r	.	.	0r	.	0r	.
8C#\J	6	.	8C#\J	.	.	.	.	.	.	.	.	.	.	.	.	.	.	.	.	.	.	.
.	.	.	.	.	.	.	16G\	-pli-	.	.	.	.	.	.	.	.	.	.	.	.	.	.
!LO:PB:g=original	!	!	!	!	!	!	!	!	!	!	!	!	!	!	!	!	!	!	!	!	!	!
8D/L	.	.	8D/L	.	.	.	8F#\	-us	.	.	.	.	.	.	.	.	.	.	.	.	.	.
16D/L	.	.	16D/L	.	.	.	8A\	in	.	.	.	.	.	.	.	.	.	.	.	.	.	.
16C#/JJ	6	.	16C#/JJ	.	.	.	.	.	.	.	.	.	.	.	.	.	.	.	.	.	.	.
!LO:TX:a:t=P:problem:mixedbeam	!	!	!LO:TX:a:t=P:problem:mixedbeam	!	!	!	!	!	!	!	!	!	!	!	!	!	!	!	!	!	!	!
16BB/LL	.	.	16BB/LL	.	.	.	2d\	Coe-	.	.	.	.	.	.	.	.	.	.	.	.	.	.
16B\	.	.	16B\	.	.	.	.	.	.	.	.	.	.	.	.	.	.	.	.	.	.	.
16A\	.	.	16A\	.	.	.	.	.	.	.	.	.	.	.	.	.	.	.	.	.	.	.
16G\JJ	.	.	16G\JJ	.	.	.	.	.	.	.	.	.	.	.	.	.	.	.	.	.	.	.
8F#\L	6	.	8F#\L	.	.	.	.	.	.	.	.	.	.	.	.	.	.	.	.	.	.	.
16B\L	.	.	16B\L	.	.	.	.	.	.	.	.	.	.	.	.	.	.	.	.	.	.	.
16G\JJ	.	.	16G\JJ	.	.	.	.	.	.	.	.	.	.	.	.	.	.	.	.	.	.	.
=42	=42	=42	=42	=42	=42	=42	=42	=42	=42	=42	=42	=42	=42	=42	=42	=42	=42	=42	=42	=42	=42	=42
4A\	.	.	4A\	.	.	.	8d\L	.	.	.	.	.	.	.	.	.	.	.	.	.	.	.
.	.	.	.	.	.	.	16c#\L	.	.	.	.	.	.	.	.	.	.	.	.	.	.	.
.	.	.	.	.	.	.	16B\JJ	.	.	.	.	.	.	.	.	.	.	.	.	.	.	.
8r	.	.	8r	.	.	.	(8.c#\L	.	.	.	.	.	.	.	.	.	.	.	.	.	.	.
8AA/	.	.	8AA/	.	.	.	.	.	.	.	.	.	.	.	.	.	.	.	.	.	.	.
.	.	.	.	.	.	.	16d\Jk)	.	.	.	.	.	.	.	.	.	.	.	.	.	.	.
8D\L	.	.	8D\L	.	.	.	8d\	-lo	.	.	.	.	.	.	.	.	.	.	.	.	.	.
16D\L	.	.	16D\L	.	.	.	8r	.	.	.	.	.	.	.	.	.	.	.	.	.	.	.
16E\JJ	6	.	16E\JJ	.	.	.	.	.	.	.	.	.	.	.	.	.	.	.	.	.	.	.
16F#\LL	6	.	16F#\LL	.	.	.	4r	.	.	.	.	.	.	.	.	.	.	.	.	.	.	.
16E\	6	.	16E\	.	.	.	.	.	.	.	.	.	.	.	.	.	.	.	.	.	.	.
16F#\	6	.	16F#\	.	.	.	.	.	.	.	.	.	.	.	.	.	.	.	.	.	.	.
16D\JJ	.	.	16D\JJ	.	.	.	.	.	.	.	.	.	.	.	.	.	.	.	.	.	.	.
=43	=43	=43	=43	=43	=43	=43	=43	=43	=43	=43	=43	=43	=43	=43	=43	=43	=43	=43	=43	=43	=43	=43
!	!	!	!	!	!	!	!LO:SIC:s:o=:v:brak kreski taktowej	!	!	!	!	!	!	!	!	!	!	!	!	!	!	!
8A\L	.	.	8A\L	1r	.	1r	1r	.	.	1r	.	.	1r	.	.	1r	.	.	1r	.	1r	.
16F#\L	6	.	16F#\L	.	.	.	.	.	.	.	.	.	.	.	.	.	.	.	.	.	.	.
16B\JJ	6	.	16B\JJ	.	.	.	.	.	.	.	.	.	.	.	.	.	.	.	.	.	.	.
.	7	.	.	.	.	.	.	.	.	.	.	.	.	.	.	.	.	.	.	.	.	.
8A\	.	.	8A\	.	.	.	.	.	.	.	.	.	.	.	.	.	.	.	.	.	.	.
16r	.	.	16r	.	.	.	.	.	.	.	.	.	.	.	.	.	.	.	.	.	.	.
16AA/	.	.	16AA/	.	.	.	.	.	.	.	.	.	.	.	.	.	.	.	.	.	.	.
8D/	.	.	8D/	.	.	.	.	.	.	.	.	.	.	.	.	.	.	.	.	.	.	.
8r	.	.	8r	.	.	.	.	.	.	.	.	.	.	.	.	.	.	.	.	.	.	.
4r	.	.	4r	.	.	.	.	.	.	.	.	.	.	.	.	.	.	.	.	.	.	.
!	!	!	!LO:TX:b:t=Verte	!	!	!	!	!	!	!	!	!	!	!	!	!	!	!	!	!	!	!
=44||	=44||	=44||	=44||	=44||	=44||	=44||	=44||	=44||	=44||	=44||	=44||	=44||	=44||	=44||	=44||	=44||	=44||	=44||	=44||	=44||	=44||	=44||
!	!	!	!LO:LB:g=original	!	!	!	!	!	!	!	!	!	!	!	!	!	!	!	!	!	!	!
*M3/2	*	*	*M3/2	*M3/2	*	*M3/2	*M3/2	*	*	*M3/2	*	*	*M3/2	*	*	*M3/2	*	*	*M3/2	*	*M3/2	*
*	*	*	*k[f#c#]	*	*	*	*	*	*	*	*	*	*	*	*	*	*	*	*	*	*	*
!	!	!	!	!	!	!	!	!	!	!	!	!	!	!	!	!	!	!	!	!	!LO:SIC:s:o=:v: all "2" right stem	!
!LO:TX:a:t=Tutti Adagio	!	!	!	!	!	!LO:SIC:o=:v:pierwsza dodana górna stale aż do zmiany metrum	!	!	!	!	!	!	!	!	!	!	!	!	!LO:TX:b:t=Princeps.	!	!LO:TX:b:t=Princeps	!
!LO:TX:b:t=Princeps	!	!	!LO:TX:b:t=Princeps	!	!	!LO:TX:b:t=Princeps	!LO:TX:a:t=Tutti	!	!	!LO:TX:a:t=Adagio	!	!	!LO:TX:a:t=Adagio	!	!	!LO:TX:a:t=Adagio	!	!	!LO:TX:a:t=Adagio	!	!LO:TX:a:t=Adagio	!
1.A\	.	.	1.A\	1.a/	.	1aa\	1.A\	Prin-	.	1.c#\	Prin-	.	1.e\	Prin-	.	1.a\	Prin-	.	2a/	.	2a/	.
.	.	.	.	.	.	.	.	.	.	.	.	.	.	.	.	.	.	.	4a/	.	4a/	.
.	.	.	.	.	.	.	.	.	.	.	.	.	.	.	.	.	.	.	4a/	.	4a/	.
*	*	*	*	*	*	*2\right	*	*	*	*	*	*	*	*	*	*	*	*	*	*	*	*
.	.	.	.	.	.	2ee\	.	.	.	.	.	.	.	.	.	.	.	.	2a/	.	2a/	.
=45	=45	=45	=45	=45	=45	=45	=45	=45	=45	=45	=45	=45	=45	=45	=45	=45	=45	=45	=45	=45	=45	=45
!	!	!	!	!LO:SIC:s:o=:v:brak kreski taktowej	!	!	!	!	!	!LO:SIC:s:o=:v:brak kreski taktowej	!	!	!LO:SIC:s:o=:v:brak kreski taktowej	!	!	!LO:SIC:s:o=:v:brak kreski taktowej	!	!	!	!	!	!
1.AA/	.	.	1.AA/	1.a/	.	1.aa\	1.AA/	-ceps	.	1.c#\	-ceps	.	1.e\	-ceps	.	1.a\	-ceps	.	1.a/	.	1.a/	.
=46	=46	=46	=46	=46	=46	=46	=46	=46	=46	=46	=46	=46	=46	=46	=46	=46	=46	=46	=46	=46	=46	=46
*2\right	*	*	*2\right	*2\right	*	*	*	*	*	*	*	*	*2\right	*	*	*2\right	*	*	*	*	*2\right	*
!	!	!	!LO:SIC:s:o=:v: all "2" right stem	!	!	!	!	!	!	!	!	!	!	!	!	!	!	!	!	!	!	!
2A\	.	.	2A\	2cc#\	.	2aa\	2A\	glo-	.	2A/	glo-	.	2e\	glo-	.	2cc#\	glo-	.	2a/	.	2ee\	.
*	*	*	*	*	*	*	*	*	*	*	*	*	*	*	*	*	*	*	*2\right	*	*	*
2F#\	6	.	2F#\	2dd\	.	4ddd\	2F#\	-rio-	.	2A/	-ri-	.	2f#\	-ri-	.	2dd\	-ri-	.	2dd\	.	2ff#\	.
.	.	.	.	.	.	4aa\	.	.	.	.	.	.	.	.	.	.	.	.	.	.	.	.
2C#/	6	.	2C#/	2ee\	.	2ccc#\	2C#/	-si-	.	2A/	-o-	.	2a\	-o-	.	2ee\	-o-	.	2ee\	.	2aa\	.
=47	=47	=47	=47	=47	=47	=47	=47	=47	=47	=47	=47	=47	=47	=47	=47	=47	=47	=47	=47	=47	=47	=47
2.D/	.	.	2.D/	2.dd\	.	2.aa\	2.D/	-si-	.	2.A/	-ſis-	.	2.f#\	-ſis-	.	2.dd\	-ſis-	.	2.dd\	.	2.ff#\	.
4D/	.	.	4D/	4dd\	.	4gg\	4D/	-me	.	4A/	-si-	.	4f#\	-si-	.	4dd\	-si-	.	4dd\	.	4ff#\	.
!LO:PB:g=original	!	!	!	!	!	!	!	!	!	!	!	!	!	!	!	!	!	!	!LO:SIC:s:o=:v: right stem	!	!	!
4D/	.	.	2D/	4dd\	.	4aa\	4D/	.	.	4A/	-me	.	4f#\	-me	.	4dd\	-me	.	4dd\	.	4ff#\	.
4r	.	.	.	4r	.	4r	4r	.	.	4r	.	.	4r	.	.	4r	.	.	4r	.	4r	.
=48	=48	=48	=48	=48	=48	=48	=48	=48	=48	=48	=48	=48	=48	=48	=48	=48	=48	=48	=48	=48	=48	=48
!	!	!LO:DY:a:t=Piano	!	!	!LO:DY:a:t=p.	!	!	!	!LO:DY:a:t=piano	!	!	!LO:DY:a:t=Piano	!	!	!LO:DY:a:t=Piano	!	!	!LO:DY:a:t=Piano	!	!	!	!
*	*	*	*	*	*	*	*	*	*	*	*ij	*	*	*ij	*	*	*ij	*	*	*	*	*
2A\	.	p	2A\	2cc#\	p	2aa\	2A\	glo-	p	2A/	glo-	p	2e\	glo-	p	2cc#\	glo-	p	2a/	.	2ee\	.
!	!	!	!	!	!	!	!	!	!	!	!	!	!	!	!	!	!	!	!	!	!LO:PB:g=original	!
!	!	!	!	!	!	!	!	!	!	!	!	!	!	!	!	!	!	!	!	!LO:DY:a:t=Piano	!LO:SIC:s:o=:v:p = pia&colon;	!LO:DY:a
2F#\	.	.	2F#\	2dd\	.	4ddd\	2F#\	-ri-	.	2A/	-ri-	.	2f#\	-ri-	.	2dd\	-ri-	.	2dd\	p	2ff#\	p
.	.	.	.	.	.	4aa\	.	.	.	.	.	.	.	.	.	.	.	.	.	.	.	.
2C#/	.	.	2C#/	2ee\	.	2ccc#\	2C#/	-o-	.	2A/	-o-	.	2a\	-o-	.	2ee\	-o-	.	2ee\	.	2aa\	.
=49	=49	=49	=49	=49	=49	=49	=49	=49	=49	=49	=49	=49	=49	=49	=49	=49	=49	=49	=49	=49	=49	=49
!	!	!	!	!	!	!	!	!	!	!	!	!	!	!	!	!LO:PB:g=original	!	!	!	!	!	!
2.D/	.	.	2.D/	2.dd\	.	2.aa\	2.D/	-ſis-	.	2.A/	-ſis-	.	2.f#\	-ſis-	.	2.dd\	-ſis-	.	2.dd\	.	2.ff#\	.
!	!	!	!	!	!	!	!	!	!	!	!	!	!LO:PB:g=original	!	!	!	!	!	!	!	!	!
!	!	!	!	!	!	!	!	!	!	!	!	!	!	!	!	!	!	!	!LO:PB:g=original	!	!	!
4D/	.	.	4D/	4dd\	.	4ff#\	4D/	-si-	.	4A/	-si-	.	4f#\	-si-	.	4dd\	-si-	.	4dd\	.	4ff#\	.
4D/	.	.	4D/	4dd\	.	4aa\	4D/	-me	.	4A/	-me	.	4f#\	-me	.	4dd\	-me	.	4dd\	.	4ff#\	.
*	*	*	*	*	*	*	*	*	*	*	*Xij	*	*	*Xij	*	*	*Xij	*	*	*	*	*
4r	.	.	4r	4r	.	4r	4r	.	.	4r	.	.	4r	.	.	4r	.	.	4r	.	4r	.
=50	=50	=50	=50	=50	=50	=50	=50	=50	=50	=50	=50	=50	=50	=50	=50	=50	=50	=50	=50	=50	=50	=50
!	!	!	!	!	!	!	!LO:PB:g=original	!	!	!LO:PB:g=original	!	!	!	!	!	!	!	!	!	!	!	!
!	!	!LO:DY:a:t=Forte	!	!	!	!	!	!	!	!	!	!	!	!	!	!	!	!	!	!	!	!
2r	.	f	2r	2r	.	2r	2r	.	.	2r	.	.	2r	.	.	2r	.	.	2r	.	2r	.
!	!	!	!	!	!LO:DY:a:t=for.	!	!	!	!	!	!	!LO:DY:a:t=Forte	!	!	!LO:DY:a:t=Forte	!	!	!LO:DY:a:t=Forte	!	!LO:DY:b:t=forte	!	!LO:DY:b:t=for.
!	!	!	!	!	!	!LO:PB:g=original	!	!	!	!	!	!	!	!	!	!	!	!	!	!	!	!
2F#\	.	.	2F#\	2dd\	f	2aa\	2F#\	Mi-	.	2A/	Mi-	f	2f#\	Mi-	f	2dd\	Mi-	f	2dd\	f	2aa\	f
2F#\	6	.	2F#\	2dd\	.	2aa\	2F#\	-cha-	.	2A/	-cha-	.	2f#\	-cha-	.	2dd\	-cha-	.	2ff#\	.	2aa\	.
=51	=51	=51	=51	=51	=51	=51	=51	=51	=51	=51	=51	=51	=51	=51	=51	=51	=51	=51	=51	=51	=51	=51
!	!	!	!	!LO:PB:g=original	!	!	!	!	!	!	!	!	!	!	!	!	!	!	!	!	!	!
2.D/	.	.	2.D/	2.dd\	.	2ff#\	(2.D/	-el	.	1A\	-el	.	1f#\	-el	.	(2.dd\	-el	.	2.ff#\	.	2.aa\	.
.	.	.	.	.	.	2.aa\	.	.	.	.	.	.	.	.	.	.	.	.	.	.	.	.
4C#/	6	.	4C#/	4ee\	.	.	4C#/)	.	.	.	.	.	.	.	.	4ee,<\)	.	.	4ee\	.	4aa\	.
*	*	*	*	*	*	*	*	*	*	*2\right	*	*	*	*	*	*	*	*	*	*	*	*
2BB/	7	.	2BB/	2dd\	.	.	2BB/	Ar-	.	2B\	Ar-	.	2f#\	Ar-	.	2dd\	Ar-	.	2ff#\	.	2aa\	.
.	.	.	.	.	.	4aa\	.	.	.	.	.	.	.	.	.	.	.	.	.	.	.	.
=52	=52	=52	=52	=52	=52	=52	=52	=52	=52	=52	=52	=52	=52	=52	=52	=52	=52	=52	=52	=52	=52	=52
2.E\	7 #	.	2.E\	2.ee\	.	2gg#X\	(2.E\	-chan-	.	1B\	-chan-	.	(2.g#X\	-chan-	.	(2.ee\	-chan-	.	2.ee\	.	2.gg#X\	.
.	.	.	.	.	.	2bb\	.	.	.	.	.	.	.	.	.	.	.	.	.	.	.	.
4D/	.	.	4D/	4ff#\	.	.	4D/)	.	.	.	.	.	4f#\)	.	.	4ff#\)	.	.	4ff#\	.	4ff#\	.
2E\	.	.	2E\	2ee\	.	2bb\	2E\	-ge-	.	2B\	-ge-	.	2g#\	-ge-	.	2ee\	-ge-	.	2ee\	.	2gg#X\	.
=53	=53	=53	=53	=53	=53	=53	=53	=53	=53	=53	=53	=53	=53	=53	=53	=53	=53	=53	=53	=53	=53	=53
2AA/	.	.	2AA/	2r	.	2.aa\	2AA/	-le	.	2B\	-le	.	2a\	-le	.	2ee\	-le	.	2ee\	.	2aa\	.
2r	.	.	2r	2ee\	.	.	2r	.	.	2r	.	.	2r	.	.	2r	.	.	2r	.	2r	.
.	.	.	.	.	.	4gg\	.	.	.	.	.	.	.	.	.	.	.	.	.	.	.	.
2F#\	6/	.	2F#\	2dd#X\	.	2ff#\	2F#\	Ar-	.	(4A\	Ar-	.	2a\	Ar-	.	2dd#X\	Ar-	.	2dd\	.	2aa\	.
.	.	.	.	.	.	.	.	.	.	4B\)	.	.	.	.	.	.	.	.	.	.	.	.
=54	=54	=54	=54	=54	=54	=54	=54	=54	=54	=54	=54	=54	=54	=54	=54	=54	=54	=54	=54	=54	=54	=54
2.E\	7 #	.	2.E\	2.ee\	.	2bb\	(2.E\	-chan-	.	1B\	-chan-	.	1a\	-chan-	.	(2.ee\	-chan-	.	2.ee\	.	2.gg#X\	.
.	.	.	.	.	.	2.bb\	.	.	.	.	.	.	.	.	.	.	.	.	.	.	.	.
*	*	*	*4\right	*	*	*	*	*	*	*	*	*	*	*	*	*	*	*	*	*	*	*
4D\	.	.	4D\	4ff#\	.	.	4D\)	.	.	.	.	.	.	.	.	4ff#\)	.	.	4ff#\	.	4ff#\	.
!	!	!	!	!	!	!	!	!	!	!LO:SIC:s=:v:A	!	!	!	!	!	!	!	!	!	!	!	!
2E\	.	.	2E\	2ee\	.	.	2E\	-ge-	.	(4B\	-ge-	.	2g#X\	-ge-	.	2ee\	-ge-	.	2ee\	.	2gg#X\	.
.	.	.	.	.	.	4aa\	.	.	.	4B\)	.	.	.	.	.	.	.	.	.	.	.	.
=55	=55	=55	=55	=55	=55	=55	=55	=55	=55	=55	=55	=55	=55	=55	=55	=55	=55	=55	=55	=55	=55	=55
!	!	!	!LO:PB:g=original	!	!	!	!	!	!	!	!	!	!	!	!	!	!	!	!	!	!	!
1.AA/	.	.	1.AA/	1ee\	.	1aa\	1.AA/	-le	.	1c#\	-le	.	1a\	-le	.	1ee\	-le	.	1.ee\	.	1.aa\	.
.	.	.	.	2r	.	2r	.	.	.	2r	.	.	2r	.	.	2r	.	.	.	.	.	.
=56	=56	=56	=56	=56	=56	=56	=56	=56	=56	=56	=56	=56	=56	=56	=56	=56	=56	=56	=56	=56	=56	=56
!LO:PB:g=original	!	!	!	!	!	!	!LO:SIC:s:o=:v:brak kreski taktowej	!	!	!	!	!	!	!	!	!LO:N:vis=00	!	!	!	!	!	!
!	!	!	!	!LO:N:vis=0	!	!	!LO:N:vis=0	!	!	!	!	!	!	!	!	!	!	!	!	!	!LO:N:vis=00	!
*clefC4	*	*	*	*	*	*	*	*	*	*	*	*	*	*	*	*	*	*	*	*	*	*
*k[f#c#]	*	*	*	*	*	*	*	*	*	*	*	*	*	*	*	*	*	*	*	*	*	*
2r	.	.	2r	0.r	.	2r	0.r	.	.	2r	.	.	2r	.	.	0.r	.	.	00.r	.	00.r	.
2A/	.	.	2A\	.	.	2cc#\	.	.	.	2A/	E-	.	2a\	E-	.	.	.	.	.	.	.	.
2A/	.	.	2A\	.	.	2cc#\	.	.	.	2A/	-sto	.	2a\	-sto	.	.	.	.	.	.	.	.
=57	=57	=57	=57	=57	=57	=57	=57	=57	=57	=57	=57	=57	=57	=57	=57	=57	=57	=57	=57	=57	=57	=57
*	*	*	*clefC4	*	*	*	*	*	*	*	*	*	*	*	*	*	*	*	*	*	*	*
*	*	*	*k[f#c#]	*	*	*	*	*	*	*	*	*	*	*	*	*	*	*	*	*	*	*
1B\	7	.	1B\	.	.	2dd\	.	.	.	1B\	me-	.	(2a\	me-	.	.	.	.	.	.	.	.
.	6/	.	.	.	.	2bb\	.	.	.	.	.	.	2g#X\)	.	.	.	.	.	.	.	.	.
2c#\	6	.	2c#\	.	.	2ee\	.	.	.	2c#\	-mor	.	2g#\	-mor	.	.	.	.	.	.	.	.
=58	=58	=58	=58	=58	=58	=58	=58	=58	=58	=58	=58	=58	=58	=58	=58	=58	=58	=58	=58	=58	=58	=58
!	!	!	!	!	!	!	!	!	!	!	!	!	!LO:PB:g=original	!	!	!	!	!	!	!	!	!
!	!	!	!	!LO:SIC:s:o=:v:brak kreski taktowej	!	!	!	!	!	!	!	!	!	!	!	!LO:SIC:s:o=:v:brak kreski taktowej	!	!	!	!	!	!
*	*	*	*	*	*	*	*	*	*	*	*	*	*	*ij	*	*	*	*	*	*	*	*
2d\	.	.	2d\	2r	.	2ff#\	1.r	.	.	(2d\	me-	.	1f#\	me-	.	2r	.	.	.	.	.	.
2B\	7	.	2B\	2dd\	.	2bb\	.	.	.	2B\)	-mor	.	.	.	.	2dd\	e-	.	.	.	.	.
2e\	7#	.	2e\	2dd\	.	2bb\	.	.	.	2e\	.	.	2g#X\	-mor	.	2dd\	-ſto	.	.	.	.	.
*	*	*	*	*	*	*	*	*	*	*	*	*	*	*Xij	*	*	*	*	*	*	*	*
=59	=59	=59	=59	=59	=59	=59	=59	=59	=59	=59	=59	=59	=59	=59	=59	=59	=59	=59	=59	=59	=59	=59
!	!	!	!	!	!	!	!	!	!	!	!	!	!	!	!	!LO:PB:g=original	!	!	!	!	!	!
!	!	!	!	!	!	!	!LO:SIC:s:o=:v:brak kreski taktowej	!	!	!	!	!	!	!	!	!	!	!	!	!	!	!
2A/	.	.	2A/	2dd\	.	2.aa\	2r	.	.	1A\	eſ-	.	1a\	noſ-	.	2dd\	me-	.	.	.	.	.
*clefF4	*	*	*clefF4	*	*	*	*	*	*	*	*	*	*	*	*	*	*	*	*	*	*	*
*k[f#c#]	*	*	*k[f#c#]	*	*	*	*	*	*	*	*	*	*	*	*	*	*	*	*	*	*	*
2A\	.	.	2A\	2cc#\	.	.	2A\	e-	.	.	.	.	.	.	.	(2cc#\	-mor	.	.	.	.	.
.	.	.	.	.	.	4ee\	.	.	.	.	.	.	.	.	.	.	.	.	.	.	.	.
2A\	.	.	2A\	2dd\	.	2ff#\	2A\	-ſto	.	2A/	-to	.	2a\	-tri	.	2dd\)	.	.	.	.	.	.
=60	=60	=60	=60	=60	=60	=60	=60	=60	=60	=60	=60	=60	=60	=60	=60	=60	=60	=60	=60	=60	=60	=60
!	!	!	!	!	!	!	!	!	!	!LO:PB:g=original	!	!	!	!	!	!	!	!	!	!	!	!
2A\	4 2	.	2A\	1b\	.	2dd\	(2A\	me-	.	1B\	me-	.	2r	.	.	1b\	me-	.	0.r	.	0.r	.
!	!	!	!	!	!	!LO:PB:g=original	!	!	!	!	!	!	!	!	!	!	!	!	!	!	!	!
2G#X\	6 5	.	2G#X\	.	.	2bb\	2G#X\)	.	.	.	.	.	2e\	eſ-	.	.	.	.	.	.	.	.
2A\	.	.	2A\	2cc#\	.	2ee\	2A\	-mor	.	2A/	-mor	.	2e\	-to	.	2cc#\	-mor	.	.	.	.	.
=61	=61	=61	=61	=61	=61	=61	=61	=61	=61	=61	=61	=61	=61	=61	=61	=61	=61	=61	=61	=61	=61	=61
!	!	!	!	!	!	!	!LO:SIC:s:o=:v:brak kreski taktowej	!	!	!	!	!	!	!	!	!	!	!	!	!	!	!
*	*	*	*	*	*	*	*	*	*	*	*ij	*	*	*	*	*	*	*	*	*	*	*
!	!	!	!	!	!	!	!LO:N:vis=0	!	!	!	!	!	!	!	!	!	!	!	!	!	!	!
1F#\	6	.	1F#\	1dd\	.	2dd\	0.r	.	.	1A\	me-	.	1f#\	me-	.	1dd\	noſ-	.	.	.	.	.
.	.	.	.	.	.	2aa\	.	.	.	.	.	.	.	.	.	.	.	.	.	.	.	.
2G#X\	6 5	.	2G#X\	2dd\	.	4gg\	.	.	.	2B\	-mor	.	2e\	-mor	.	2dd\	-tri	.	.	.	.	.
.	.	.	.	.	.	4bb\	.	.	.	.	.	.	.	.	.	.	.	.	.	.	.	.
*	*	*	*	*	*	*	*	*	*	*	*Xij	*	*	*	*	*	*	*	*	*	*	*
=62	=62	=62	=62	=62	=62	=62	=62	=62	=62	=62	=62	=62	=62	=62	=62	=62	=62	=62	=62	=62	=62	=62
1A\	.	.	1A\	2r	.	2ee\	.	.	.	1c#\	noſ-	.	2r	.	.	2r	.	.	1.r	.	1.r	.
*	*	*	*	*	*	*	*	*	*	*	*	*	*	*ij	*	*	*	*	*	*	*	*
.	.	.	.	2a/	.	2aa\	.	.	.	.	.	.	2e\	eſ-	.	2a\	eſ-	.	.	.	.	.
2r	.	.	2r	2a/	.	2ee\	.	.	.	2c#\	-tri	.	2e\	-to	.	2a\	-to	.	.	.	.	.
=63	=63	=63	=63	=63	=63	=63	=63	=63	=63	=63	=63	=63	=63	=63	=63	=63	=63	=63	=63	=63	=63	=63
!!pagebreak:original
!	!	!	!	!LO:PB:g=original	!	!	!	!	!	!	!	!	!	!	!	!	!	!	!	!	!	!
!	!	!	!	!	!	!	!LO:SIC:s:o=:v:brak kreski taktowej	!	!	!	!	!	!	!	!	!	!	!	!LO:SIC:s:o=:v:brak kreski taktowej	!	!	!
2r	.	.	2r	1a/	.	2ff#\	2r	.	.	2r	.	.	1f#\	me-	.	1a\	me-	.	2r	.	2r	.
!	!	!	!	!	!	!LO:SIC:o=:v: 2 dodana górna przez 3 takty	!	!	!	!	!	!	!	!	!	!	!	!	!	!	!	!
2D/	.	.	2D/	.	.	2ddd\	2D/	e-	.	2d\	eſ-	.	.	.	.	.	.	.	2ff#\	.	2aa\	.
!	!	!	!	!	!	!	!	!	!	!	!	!	!	!	!	!LO:N:vis=4	!	!	!	!	!	!
2D/	.	.	2D/	2a/	.	2ddd\	2D/	-ſto	.	2d\	-to	.	2f#\	-mor	.	2b\	-mor	.	2ff#\	.	2aa\	.
*	*	*	*	*	*	*	*	*	*	*	*	*	*	*Xij	*	*	*	*	*	*	*	*
=64	=64	=64	=64	=64	=64	=64	=64	=64	=64	=64	=64	=64	=64	=64	=64	=64	=64	=64	=64	=64	=64	=64
!	!	!	!	!	!	!	!	!	!	!	!	!	!	!	!	!	!	!	!LO:PB:g=original	!	!	!
*	*	*	*	*	*	*	*	*	*	*	*	*	*	*	*	*	*ij	*	*	*	*	*
1E\	7	.	1E\	1g/	.	2bb\	1E\	me-	.	(2d\	me-	.	1e\	me-	.	1g\	me-	.	1ee\	.	1gg\	.
.	6	.	.	.	.	2eee\	.	.	.	2c#\)	.	.	.	.	.	.	.	.	.	.	.	.
2F#\	6	.	2F#\	2f#/	.	2aa\	2F#\	-mor	.	2d\	-mor	.	2d\	-mor	.	2f#/	-mor	.	2dd\	.	2ff#\	.
=65	=65	=65	=65	=65	=65	=65	=65	=65	=65	=65	=65	=65	=65	=65	=65	=65	=65	=65	=65	=65	=65	=65
!LO:PB:g=original	!	!	!	!	!	!	!	!	!	!	!	!	!	!	!	!	!	!	!	!	!	!
*	*	*	*	*	*	*	*	*	*	*	*ij	*	*	*ij	*	*	*	*	*	*	*	*
2G\	.	.	2G\	1b\	.	2ddd\	(2G\	me-	.	1B\	me-	.	1d\	me-	.	1b\	me-	.	2dd\	.	2dd\	.
2E\	7	.	2E\	.	.	2ddd\	2E\)	.	.	.	.	.	.	.	.	.	.	.	2ee\	.	2gg\	.
!	!	!	!LO:PB:g=original	!	!	!	!	!	!	!	!	!	!	!	!	!	!	!	!	!	!	!
2A\	7	.	2A\	2a/	.	2ccc#\	2A\	-mor	.	2c#\	-mor	.	2e\	-mor	.	2a\	-mor	.	2ee\	.	2aa\	.
*	*	*	*	*	*	*	*	*	*	*	*Xij	*	*	*Xij	*	*	*Xij	*	*	*	*	*
=66	=66	=66	=66	=66	=66	=66	=66	=66	=66	=66	=66	=66	=66	=66	=66	=66	=66	=66	=66	=66	=66	=66
!	!	!	!	!LO:N:vis=2	!	!	!	!	!	!	!	!	!	!	!	!	!	!	!	!	!	!
!	!	!	!	!LO:SIC:s:o=:v:brak kreski taktowej	!	!	!LO:SIC:s:o=:v:brak kreski taktowej	!	!	!	!	!	!	!	!	!	!	!	!	!	!	!
1D\	.	.	1D\	1a/	.	1aa\	1D\	noſ-	.	1d\	noſ-	.	1f#\	noſ-	.	1a\	noſ-	.	1dd\	.	1ff#\	.
2D/	.	.	2D/	2a/	.	2aa\	2D/	-tri	.	2d\	-tri	.	2f#\	-tri	.	2a\	-tri	.	2dd\	.	2ff#\	.
=67	=67	=67	=67	=67	=67	=67	=67	=67	=67	=67	=67	=67	=67	=67	=67	=67	=67	=67	=67	=67	=67	=67
!	!	!	!	!	!	!	!	!	!	!LO:TX:a:t=3	!	!	!LO:TX:a:t=3	!	!	!	!	!	!	!	!	!
!	!	!	!	!LO:N:vis=0	!	!	!LO:N:vis=0	!	!	!LO:N:vis=0	!	!	!LO:N:vis=0	!	!	!	!	!	!LO:N:vis=0	!	!LO:N:vis=0	!
1A\	.	.	1A\	0.r	.	1.r	0.r	.	.	0.r	.	.	0.r	.	.	2r	.	.	0.r	.	0.r	.
.	.	.	.	.	.	.	.	.	.	.	.	.	.	.	.	(4ee\	me-	.	.	.	.	.
.	.	.	.	.	.	.	.	.	.	.	.	.	.	.	.	4dd\)	.	.	.	.	.	.
!LO:TX:a:t=Solo	!	!	!	!	!	!	!	!	!	!	!	!	!	!	!	!	!	!	!	!	!	!
2r	.	.	2r	.	.	.	.	.	.	.	.	.	.	.	.	(4ee\	-mor	.	.	.	.	.
.	.	.	.	.	.	.	.	.	.	.	.	.	.	.	.	4cc#\)	.	.	.	.	.	.
=68	=68	=68	=68	=68	=68	=68	=68	=68	=68	=68	=68	=68	=68	=68	=68	=68	=68	=68	=68	=68	=68	=68
!	!	!	!	!	!	!	!	!	!	!	!	!	!	!	!	!LO:PB:g=original	!	!	!	!	!	!
!	!	!	!	!	!	!LO:SIC:o=:v:brak kreski taktowej	!	!	!	!	!	!	!	!	!	!	!	!	!	!	!	!
2A\	6_	.	2A\	.	.	1.r	.	.	.	.	.	.	.	.	.	1.ff#\	eſto	.	.	.	.	.
4A\	.	.	4A\	.	.	.	.	.	.	.	.	.	.	.	.	.	.	.	.	.	.	.
4G\	.	.	4G\	.	.	.	.	.	.	.	.	.	.	.	.	.	.	.	.	.	.	.
4A\	x	.	4A\	.	.	.	.	.	.	.	.	.	.	.	.	.	.	.	.	.	.	.
4F#\	.	.	4F#\	.	.	.	.	.	.	.	.	.	.	.	.	.	.	.	.	.	.	.
=69	=69	=69	=69	=69	=69	=69	=69	=69	=69	=69	=69	=69	=69	=69	=69	=69	=69	=69	=69	=69	=69	=69
!	!	!	!	!	!	!	!LO:SIC:s:o=:v:brak kreski taktowej	!	!	!	!	!	!	!	!	!	!	!	!	!	!	!
2B\	5	.	2B\	1.r	.	1.r	2r	.	.	1.r	.	.	1.r	.	.	(4ff#\	.	.	1.r	.	1.r	.
.	6	.	.	.	.	.	.	.	.	.	.	.	.	.	.	4gg\)	.	.	.	.	.	.
2A\	6 4	.	2A\	.	.	.	2A\	eſ-	.	.	.	.	.	.	.	2.ff#\	no-	.	.	.	.	.
2AA/	5 #	.	2AA/	.	.	.	2A\	-to	.	.	.	.	.	.	.	.	.	.	.	.	.	.
.	.	.	.	.	.	.	.	.	.	.	.	.	.	.	.	(8ee\L	.	.	.	.	.	.
.	.	.	.	.	.	.	.	.	.	.	.	.	.	.	.	8dd\J)	.	.	.	.	.	.
=70	=70	=70	=70	=70	=70	=70	=70	=70	=70	=70	=70	=70	=70	=70	=70	=70	=70	=70	=70	=70	=70	=70
!	!	!	!	!	!	!	!	!	!	!	!	!	!LO:PB:g=original	!	!	!	!	!	!	!	!	!
!	!	!	!	!	!	!LO:SIC:s:o=:v:brak kreski taktowej	!	!	!	!	!	!	!	!	!	!	!	!	!LO:SIC:s:o=:v:brak kreski taktowej	!	!LO:SIC:s:o=:v:brak kreski taktowej	!
2D/	.	.	2D/	2r	.	2r	(2.A\	me-	.	2r	.	.	2r	.	.	2dd\	-ſtri	.	2r	.	2r	.
!LO:TX:a:t=Tutti.	!	!	!	!	!	!	!	!	!	!	!	!	!	!	!	!	!	!	!	!	!	!
1A\	.	.	1A\	(4ee\	.	2aa\	.	.	.	(4c#\	me-	.	2a\	e-	.	(4ee\	me-	.	2a/	.	2ee\	.
.	.	.	.	4dd\)	.	.	4G\	.	.	4B\)	.	.	.	.	.	4dd\)	.	.	.	.	.	.
.	.	.	.	(4ee\	.	2aa\	4B\	.	.	(4c#\	-mor	.	2a\	-ſto	.	(4ee\	-mor	.	2a/	.	2ee\	.
.	.	.	.	4cc#\)	.	.	4F#\)	.	.	4A\)	.	.	.	.	.	4cc#\)	.	.	.	.	.	.
=71	=71	=71	=71	=71	=71	=71	=71	=71	=71	=71	=71	=71	=71	=71	=71	=71	=71	=71	=71	=71	=71	=71
2A\	6_	.	2A\	1.ff#\	.	2aa\	2B\	-mor	.	2r	.	.	1a\	me-	.	1.ff#\	e-	.	1a/	.	1.ff#\	.
!	!	!	!	!	!	!LO:SIC:o=:v: 2 dodana górna przez 3 dźwięki	!	!	!	!	!	!	!	!	!	!	!	!	!	!	!	!
4A\	.	.	4A\	.	.	4ccc#\	(2A\	no-	.	2c#\	eſ-	.	.	.	.	.	.	.	.	.	.	.
4G\	.	.	4G\	.	.	4bb\	.	.	.	.	.	.	.	.	.	.	.	.	.	.	.	.
4A\	x	.	4A\	.	.	4ccc#\	2AA/)	.	.	2c#\	-to	.	2a\	-mor	.	.	.	.	2dd\	.	.	.
4F#\	.	.	4F#\	.	.	4aa\	.	.	.	.	.	.	.	.	.	.	.	.	.	.	.	.
=72	=72	=72	=72	=72	=72	=72	=72	=72	=72	=72	=72	=72	=72	=72	=72	=72	=72	=72	=72	=72	=72	=72
!	!	!	!	!	!	!	!	!	!	!LO:PB:g=original	!	!	!	!	!	!	!	!	!	!	!	!
2B\	5 6	.	2B\	4ff#\	.	4gg\	2D/	-stri	.	2d\	no-	.	(2d\	no-	.	4ff#\	-ſto	.	2dd\	.	2gg\	.
.	.	.	.	4gg\	.	4ccc#\	.	.	.	.	.	.	.	.	.	4gg\	.	.	.	.	.	.
2A\	6 4	.	2A\	2.ff#\	.	2.aa\	2r	.	.	(2.d\	.	.	1a\)	.	.	2.ff#\	no-	.	2dd\	.	2ff#\	.
2AA/	5 3	.	2AA/	.	.	.	2r	.	.	.	.	.	.	.	.	.	.	.	2a/	.	2ee\	.
.	.	.	.	8ee\L	.	4aa\	.	.	.	4c#\)	.	.	.	.	.	(8ee\L	.	.	.	.	.	.
.	.	.	.	8dd\J	.	.	.	.	.	.	.	.	.	.	.	8dd\J)	.	.	.	.	.	.
=73	=73	=73	=73	=73	=73	=73	=73	=73	=73	=73	=73	=73	=73	=73	=73	=73	=73	=73	=73	=73	=73	=73
!	!	!	!	!	!	!LO:PB:g=original	!LO:N:vis=0	!	!	!	!	!	!	!	!	!	!	!	!	!	!	!
2D/	.	.	2D/	2dd\	.	2aa\	0.r	.	.	2d\	-stri	.	2d\	-ſtri	.	2dd\	-ſtri	.	2f#/	.	2dd\	.
2r	.	.	2r	2r	.	1r	.	.	.	2r	.	.	2r	.	.	2r	.	.	2r	.	2r	.
2r	.	.	2r	2r	.	.	.	.	.	2r	.	.	2r	.	.	2r	.	.	2r	.	2r	.
=74	=74	=74	=74	=74	=74	=74	=74	=74	=74	=74	=74	=74	=74	=74	=74	=74	=74	=74	=74	=74	=74	=74
!LO:PB:g=original	!	!	!	!	!	!	!	!	!	!	!	!	!	!	!	!	!	!	!	!	!	!
!LO:TX:a:t=Solo	!	!	!	!	!	!	!	!	!	!LO:SIC:s:o=:v:brak kreski taktowej	!	!	!	!	!	!	!	!	!	!	!	!
2r	.	.	2r	1.r	.	1.r	.	.	.	1.r	.	.	1.r	.	.	2r	.	.	1.r	.	1.r	.
1A\	.	.	1A\	.	.	.	.	.	.	.	.	.	.	.	.	(4ee\	memor	.	.	.	.	.
.	.	.	.	.	.	.	.	.	.	.	.	.	.	.	.	4dd\)	.	.	.	.	.	.
.	.	.	.	.	.	.	.	.	.	.	.	.	.	.	.	(4ee\	.	.	.	.	.	.
.	.	.	.	.	.	.	.	.	.	.	.	.	.	.	.	4cc#\)	.	.	.	.	.	.
=75	=75	=75	=75	=75	=75	=75	=75	=75	=75	=75	=75	=75	=75	=75	=75	=75	=75	=75	=75	=75	=75	=75
!	!	!	!	!LO:SIC:s:o=:v:brak kreski taktowej	!	!	!LO:SIC:s:o=:v:brak kreski taktowej	!	!	!LO:SIC:s:o=:v:brak kreski taktowej	!	!	!LO:SIC:s:o=:v:brak kreski taktowej	!	!	!	!	!	!LO:SIC:s:o=:v:brak kreski taktowej	!	!LO:SIC:s:o=:v:brak kreski taktowej	!
2r	.	.	2r	2r	.	2r	2r	.	.	2r	.	.	2r	.	.	1.ff#\	eſ-	.	2r	.	2r	.
!	!	!	!	!	!	!LO:SIC:o=:v:2 dodana górna przez dwa takty	!	!	!	!	!	!	!	!	!	!	!	!	!	!	!	!
4A\	6_	.	4A\	2ff#\	.	2ccc#\	(4A\	me-	.	(4c#\	me-	.	2a\	eſ-	.	.	.	.	2ff#\	.	2aa\	.
4G\	.	.	4G\	.	.	.	4G\)	.	.	4B\)	.	.	.	.	.	.	.	.	.	.	.	.
4A\	.	.	4A\	2ff#\	.	2ccc#\	(4A\	.	.	(4c#\	-mor	.	2a\	-to	.	.	.	.	2ff#\	.	2aa\	.
4F#\	x	.	4F#\	.	.	.	4F#\)	.	.	4A\)	.	.	.	.	.	.	.	.	.	.	.	.
=76	=76	=76	=76	=76	=76	=76	=76	=76	=76	=76	=76	=76	=76	=76	=76	=76	=76	=76	=76	=76	=76	=76
!	!	!	!LO:PB:g=original	!LO:PB:g=original	!	!	!	!	!	!	!	!	!	!	!	!	!	!	!	!	!	!
!	!	!	!	!	!	!	!	!	!	!	!	!	!	!	!	!LO:SIC:s:o=:v:brak kreski taktowej	!	!	!	!	!	!
2B\	6 5	.	2B\	4ff#\	.	4bb\	2B\	-mor	.	4d\	eſ-	.	4d\	me-	.	4ff#\	-to	.	4dd\	.	4ff#\	.
.	.	.	.	4gg\	.	4ddd\	.	.	.	4d\	-to	.	4d\	-mor	.	4gg,<\	.	.	4ee\	.	4gg\	.
!	!	!	!	!	!	!	!	!	!	!	!	!	!	!	!	!	!	!	!LO:PB;g=original	!	!	!
2A\	6 4	.	2A\	2.ff#\	.	1aa\	(2A\	noſ-	.	(2.d\	no-	.	1a\	no-	.	2.ff#\	no-	.	2dd\	.	2ff#\	.
.	5 3	.	.	.	.	.	.	.	.	.	.	.	.	.	.	.	.	.	.	.	.	.
2AA/	.	.	2AA/	.	.	.	2AA/)	.	.	.	.	.	.	.	.	.	.	.	2a/	.	4.ee\	.
!	!	!	!	!	!	!	!	!	!	!	!	!	!	!	!	!LO:PB:g=original	!	!	!	!	!	!
.	.	.	.	8ee\L	.	.	.	.	.	4c#\)	.	.	.	.	.	(8ee\L	.	.	.	.	.	.
.	.	.	.	8dd\J	.	.	.	.	.	.	.	.	.	.	.	8dd\J)	.	.	.	.	8dd\	.
=77	=77	=77	=77	=77	=77	=77	=77	=77	=77	=77	=77	=77	=77	=77	=77	=77	=77	=77	=77	=77	=77	=77
*M2/2	*	*	*M2/2	*M2/2	*	*M2/2	*M2/2	*	*	*M2/2	*	*	*M2/2	*	*	*M2/2	*	*	*M2/2	*	*M2/2	*
*met(c|)	*	*	*met(c|)	*met(c|)	*	*met(c|)	*met(c|)	*	*	*met(c|)	*	*	*met(c|)	*	*	*met(c|)	*	*	*met(c|)	*	*met(c|)	*
!LO:TX:b:t=Alto	!	!	!	!	!	!LO:TX:b:t=Allegro	!	!	!	!	!	!	!LO:TX:a:t=Allegro.	!	!	!LO:TX:a:t=Allegro	!	!	!	!	!LO:TX:a:t=Allegro	!
4D/	.	.	4D/	4dd\	.	4aa\	4D/	-tri	.	4d\	-stri	.	4f#,<\	-ſtri	.	4dd\	-stri	.	4f#/	.	4dd\	.
*clefC3	*	*	*	*	*	*	*	*	*	*	*	*	*	*	*	*	*	*	*	*	*	*
!LO:TX:a:t=Allegro.	!	!	!	!	!	!	!	!	!	!	!	!	!	!	!	!	!	!	!	!	!	!
!	!	!	!LO:N:vis=2	!	!	!	!LO:TX:b:t=allegro	!	!	!	!	!	!	!	!	!	!	!	!	!	!	!
4d\	.	.	2r.	4r	.	4r	4r	.	.	4r	.	.	4d\	hic	.	4r	.	.	4r	.	4r	.
8e\L	.	.	.	2r	.	2r	2r	.	.	2r	.	.	8e\	et	.	2r	.	.	2r	.	2r	.
8e\J	.	.	.	.	.	.	.	.	.	.	.	.	8e\	u-	.	.	.	.	.	.	.	.
8f#\L	.	.	.	.	.	.	.	.	.	.	.	.	8f#\	-bi-	.	.	.	.	.	.	.	.
8d\J	.	.	.	.	.	.	.	.	.	.	.	.	8d\	-que	.	.	.	.	.	.	.	.
=78	=78	=78	=78	=78	=78	=78	=78	=78	=78	=78	=78	=78	=78	=78	=78	=78	=78	=78	=78	=78	=78	=78
!	!	!	!	!	!	!	!	!	!	!	!	!	!LO:PB:g=original	!	!	!	!	!	!	!	!	!
!	!	!	!	!	!	!	!LO:SIC:s:o=:v:brak kreski taktowej	!	!	!LO:SIC:s:o=:v:brak kreski taktowej	!	!	!	!	!	!LO:SIC:s:o=:v:brak kreski taktowej	!	!	!	!	!	!
4a\	.	.	0r	00r	.	00r	0r	.	.	1r	.	.	4a\	ſem-	.	00r	.	.	00r	.	00r	.
4f#\	.	.	.	.	.	.	.	.	.	.	.	.	8f#\	-per	.	.	.	.	.	.	.	.
.	.	.	.	.	.	.	.	.	.	.	.	.	8r	.	.	.	.	.	.	.	.	.
8r	.	.	.	.	.	.	.	.	.	.	.	.	8r	.	.	.	.	.	.	.	.	.
8b\L	.	.	.	.	.	.	.	.	.	.	.	.	8b\	ſem-	.	.	.	.	.	.	.	.
8g#X\	.	.	.	.	.	.	.	.	.	.	.	.	8g#X\	-per	.	.	.	.	.	.	.	.
8e\J	.	.	.	.	.	.	.	.	.	.	.	.	8e\	prae-	.	.	.	.	.	.	.	.
=79	=79	=79	=79	=79	=79	=79	=79	=79	=79	=79	=79	=79	=79	=79	=79	=79	=79	=79	=79	=79	=79	=79
*^	*	*	*	*	*	*	*	*	*	*	*	*	*	*	*	*	*	*	*	*	*	*
!!pagebreak:original
!	!	!	!	!	!	!	!	!	!	!	!LO:SIC:s:o=:v:brak kreski taktowej	!	!	!	!	!	!	!	!	!	!	!	!
2a/	4r	.	.	.	.	.	.	.	.	.	4r	.	.	2a\	-care	.	.	.	.	.	.	.	.
.	4A\	.	.	.	.	.	.	.	.	.	4A/	hic	.	.	.	.	.	.	.	.	.	.	.
8a/L	8B\L	.	.	.	.	.	.	.	.	.	8B\	et	.	8a\	.	.	.	.	.	.	.	.	.
8g#X/J	8B\J	.	.	.	.	.	.	.	.	.	8B\	u-	.	8g#X\	pro-	.	.	.	.	.	.	.	.
4a/	8c#\L	.	.	.	.	.	.	.	.	.	8c#\	-bi-	.	4a\	-no-	.	.	.	.	.	.	.	.
.	8A\J	.	.	.	.	.	.	.	.	.	8A/	-que	.	.	.	.	.	.	.	.	.	.	.
=80	=80	=80	=80	=80	=80	=80	=80	=80	=80	=80	=80	=80	=80	=80	=80	=80	=80	=80	=80	=80	=80	=80	=80
!LO:PB:g=original	!	!	!	!	!	!	!	!	!	!	!	!	!	!	!	!	!	!	!	!	!	!	!
4f#/	4d\	.	.	1r	.	.	.	1r	.	.	4d\	ſem-	.	4f#\	-bis	.	.	.	.	.	.	.	.
8r	4B\	.	.	.	.	.	.	.	.	.	4B\	-per	.	8r	.	.	.	.	.	.	.	.	.
8b/	.	.	.	.	.	.	.	.	.	.	.	.	.	8b\	ſem-	.	.	.	.	.	.	.	.
!	!	!	!	!	!	!	!	!	!	!	!LO:PB:g=original	!	!	!	!	!	!	!	!	!	!	!	!
8g#X/L	8r	.	.	.	.	.	.	.	.	.	8r	.	.	8g#X\	-per	.	.	.	.	.	.	.	.
8e/J	8e\	.	.	.	.	.	.	.	.	.	8e\	ſem-	.	8e\	pre-	.	.	.	.	.	.	.	.
4a/	8c#\L	.	.	.	.	.	.	.	.	.	8c#\	-per	.	4a\	-ca-	.	.	.	.	.	.	.	.
.	8A\J	.	.	.	.	.	.	.	.	.	8A\	pre-	.	.	.	.	.	.	.	.	.	.	.
*v	*v	*	*	*	*	*	*	*	*	*	*	*	*	*	*	*	*	*	*	*	*	*	*
=81	=81	=81	=81	=81	=81	=81	=81	=81	=81	=81	=81	=81	=81	=81	=81	=81	=81	=81	=81	=81	=81	=81
4d\	.	.	4r	.	.	.	4r	.	.	4d\	-ca-	.	8f#\	-re	.	.	.	.	.	.	.	.
*	*	*	*	*	*	*	*	*	*	*	*	*	*	*ij	*	*	*	*	*	*	*	*
.	.	.	.	.	.	.	.	.	.	.	.	.	8a\	ſem-	.	.	.	.	.	.	.	.
*clefF4	*	*	*	*	*	*	*	*	*	*	*	*	*	*	*	*	*	*	*	*	*	*
*k[f#c#]	*	*	*	*	*	*	*	*	*	*	*	*	*	*	*	*	*	*	*	*	*	*
4D/	.	.	4D/	.	.	.	4D/	hic	.	4d,<\	-re	.	8f#\	-per	.	.	.	.	.	.	.	.
.	.	.	.	.	.	.	.	.	.	.	.	.	8d\	pre-	.	.	.	.	.	.	.	.
!	!	!	!	!	!	!	!LO:PB:g=original	!	!	!	!	!	!	!	!	!	!	!	!	!	!	!
8E\L	7	.	8E\L	.	.	.	8E\	et	.	8d\	ſem-	.	4g\	-ca-	.	.	.	.	.	.	.	.
8E\J	6	.	8E\	.	.	.	8E\	u-	.	8c#,<\	-per	.	.	.	.	.	.	.	.	.	.	.
*	*	*	*	*	*	*	*	*	*	*	*ij	*	*	*	*	*	*	*	*	*	*	*
8F#\L	6	.	8F#\	.	.	.	8F#\	-bi-	.	4d\	ſem-	.	8f#,<\	-re	.	.	.	.	.	.	.	.
*	*	*	*	*	*	*	*	*	*	*	*	*	*	*Xij	*	*	*	*	*	*	*	*
8D\J	.	.	8D\J	.	.	.	8D/	-que	.	.	.	.	8f#\	pro-	.	.	.	.	.	.	.	.
=82	=82	=82	=82	=82	=82	=82	=82	=82	=82	=82	=82	=82	=82	=82	=82	=82	=82	=82	=82	=82	=82	=82
!!pagebreak:original
!	!	!	!	!	!	!	!	!	!	!	!	!	!LO:PB:g=original	!	!	!	!	!	!	!	!	!
4A\	.	.	4A\	1r	.	1r	4A\	ſem-	.	8c#,<\	-per	.	8e\	-no-	.	1r	.	.	00r	.	00r	.
*	*	*	*	*	*	*	*	*	*	*	*Xij	*	*	*	*	*	*	*	*	*	*	*
.	.	.	.	.	.	.	.	.	.	8c#\	hic	.	8e\	-bis	.	.	.	.	.	.	.	.
4F#\	.	.	4F#\	.	.	.	4F#\	-per	.	8A/	et	.	8r	.	.	.	.	.	.	.	.	.
.	.	.	.	.	.	.	.	.	.	8F#/	u-	.	8f#\	ſem-	.	.	.	.	.	.	.	.
8r	.	.	8r	.	.	.	8r	.	.	8B\	-bi-	.	8d\	-per	.	.	.	.	.	.	.	.
8B\L	.	.	8B\L	.	.	.	8B\	ſem-	.	8B\	-que	.	8B/	pre-	.	.	.	.	.	.	.	.
8G#X\	6 5	.	8G#X\	.	.	.	8G#X\	-per	.	4B\	ſem-	.	4e\	-ca-	.	.	.	.	.	.	.	.
8E\J	.	.	8E\J	.	.	.	8E\	pre-	.	.	.	.	.	.	.	.	.	.	.	.	.	.
=83	=83	=83	=83	=83	=83	=83	=83	=83	=83	=83	=83	=83	=83	=83	=83	=83	=83	=83	=83	=83	=83	=83
!	!	!	!	!LO:TX:b:t=Allegro	!	!	!	!	!	!	!	!	!	!	!	!	!	!	!	!	!	!
2A\	.	.	2A\	4r	.	4r	2A\	-ca-	.	8c#,<\	-per	.	4e\	-re	.	4r	.	.	.	.	.	.
.	.	.	.	.	.	.	.	.	.	8e\	ſem-	.	.	.	.	.	.	.	.	.	.	.
.	.	.	.	4a/	.	4a/	.	.	.	8c#\	-per	.	4e\	ſem-	.	4a\	hic	.	.	.	.	.
.	.	.	.	.	.	.	.	.	.	8A\	pre-	.	.	.	.	.	.	.	.	.	.	.
8A\L	.	.	8A\L	8b/L	.	8b/L	8A\	-re	.	4d\	-ca-	.	8e\	-per	.	8b\	et	.	.	.	.	.
8G#X\	.	.	8G#X\	8b/J	.	8b/J	8G#X\	pro-	.	.	.	.	8e\	prae-	.	8b\	u-	.	.	.	.	.
8A\	.	.	8A\	8cc#\L	.	8cc#\L	8A\	-no-	.	8c#\	-re	.	(4e\	-ca-	.	8cc#\	-bi-	.	.	.	.	.
!	!	!	!	!	!	!	!	!	!	!	!	!	!	!	!	!LO:SIC:o=:v:różna pisownia słowa ubique	!	!	!	!	!	!
8A\J	.	.	8A\J	8a\J	.	8a\J	8A\	-bis	.	8e\	pro-	.	.	.	.	8a\	-quae	.	.	.	.	.
=84	=84	=84	=84	=84	=84	=84	=84	=84	=84	=84	=84	=84	=84	=84	=84	=84	=84	=84	=84	=84	=84	=84
!!pagebreak:original
!	!	!	!	!	!	!	!	!	!	!LO:PB:g=original	!	!	!	!	!	!	!	!	!	!	!	!
8F#\L	.	.	8F#\L	4dd\	.	4dd\	8F#\	ſem-	.	2d\	-no-	.	4f#\)	.	.	4dd\	ſem-	.	.	.	.	.
8D\J	.	.	8D\J	.	.	.	8D\	-per	.	.	.	.	.	.	.	.	.	.	.	.	.	.
*	*	*	*	*	*	*	*	*ij	*	*	*	*	*	*	*	*	*	*	*	*	*	*
4G\	.	.	4G\	4b/	.	4b\	4G\	ſem-	.	.	.	.	4g\	-re	.	4b\	-per	.	.	.	.	.
4E\	.	.	4E\	8r	.	8r	4E\	-per	.	4e\	-bis	.	8r	.	.	8r	.	.	.	.	.	.
*	*	*	*	*	*	*	*	*Xij	*	*	*	*	*	*ij	*	*	*	*	*	*	*	*
.	.	.	.	8ee\L	.	8ee\L	.	.	.	.	.	.	8g\	ſem-	.	8ee\	ſem-	.	.	.	.	.
8r	.	.	8r	8cc#\	.	8cc#\	8r	.	.	8r	.	.	8e\	-per	.	8cc#\	-per	.	.	.	.	.
8A\	.	.	8A\	8a\J	.	8a\J	8A\	ſem-	.	8c#\	pre-	.	8e\	prae-	.	8a\	pre-	.	.	.	.	.
=85	=85	=85	=85	=85	=85	=85	=85	=85	=85	=85	=85	=85	=85	=85	=85	=85	=85	=85	=85	=85	=85	=85
!LO:PB;g=original	!	!	!	!	!	!	!	!	!	!	!	!	!	!	!	!	!	!	!	!	!	!
(8F#\L	6	.	8F#\L	2dd\	.	2dd\	8F#\	-per	.	8A/	-ca-	.	4f#\	-ca-	.	2dd\	-ca-	.	.	.	.	.
8D\J)	.	.	8D\J	.	.	.	8D\	pre-	.	8d\	-re	.	.	.	.	.	.	.	.	.	.	.
4E\	7	.	4E\	.	.	.	(4E\	-ca-	.	4B\	ſem-	.	4.g,<\	-re	.	.	.	.	.	.	.	.
.	6	.	.	.	.	.	.	.	.	.	.	.	.	.	.	.	.	.	.	.	.	.
*	*	*	*	*	*	*	*	*	*	*	*	*	*	*Xij	*	*	*	*	*	*	*	*
4A\	.	.	4A\	8dd\L	.	8dd\L	4A\)	.	.	8A,<\	-per	.	.	.	.	8dd\	-re	.	.	.	.	.
.	.	.	.	8cc#\J	.	8cc#\J	.	.	.	8A\	pro-	.	(16f#\LL	pro-	.	8cc#\	pro-	.	.	.	.	.
.	.	.	.	.	.	.	.	.	.	.	.	.	16e\JJ)	.	.	.	.	.	.	.	.	.
4D/	.	.	4D/	4dd\	.	4dd\	4D/	-re	.	4A/	-no-	.	4f#\	-no-	.	4dd\	-no-	.	.	.	.	.
=86	=86	=86	=86	=86	=86	=86	=86	=86	=86	=86	=86	=86	=86	=86	=86	=86	=86	=86	=86	=86	=86	=86
!	!	!	!LO:PB:g=original	!	!	!	!	!	!	!	!	!	!	!	!	!LO:PB:g=original	!	!	!	!	!	!
4r	.	.	4r	8a/L	.	8a/L	4r	.	.	8F#,</	-bis	.	(8f#\L	-bis	.	(8a\L	-bis	.	0r	.	0r	.
.	.	.	.	8b/J	.	8b/J	.	.	.	8G/	pre-	.	8e\J)	.	.	8b,<\J)	.	.	.	.	.	.
!	!	!	!	!	!	!	!	!	!	!	!	!	!LO:PB:g=original	!	!	!	!	!	!	!	!	!
4AA/	.	.	4AA/	4cc#\	.	4cc#\	4AA/	hic	.	4A/	-ca-	.	(8e\L	hic	.	4cc#\	hic	.	.	.	.	.
.	.	.	.	.	.	.	.	.	.	.	.	.	8a\J)	.	.	.	.	.	.	.	.	.
!	!	!	!	!	!	!LO:PB:g=original	!	!	!	!	!	!	!	!	!	!	!	!	!	!	!	!
8BB/L	7	.	8BB/L	8dd\L	.	8dd\L	8BB/	et	.	8A/	-re	.	8f#\	et	.	8dd\	et	.	.	.	.	.
8BB/J	6/	.	8BB/	8dd\	.	8dd\J	8BB/	u-	.	8G#X/	pro-	.	8b\	u-	.	8dd\	u-	.	.	.	.	.
8C#/L	6	.	8C#/	8ee\	.	8ee\L	8C#/	-bi-	.	4A/	-no-	.	8e\	-bi-	.	(8ee\L	-bi-	.	.	.	.	.
8AA/J	.	.	8AA/J	8cc#\J	.	8cc#\J	8AA/	-que	.	.	.	.	8a\	-que	.	8cc#\J)	.	.	.	.	.	.
=87	=87	=87	=87	=87	=87	=87	=87	=87	=87	=87	=87	=87	=87	=87	=87	=87	=87	=87	=87	=87	=87	=87
4D/	.	.	4D/	4dd\	.	4dd\	4D/	ſem-	.	4A/	-bis	.	8f#\	ſem-	.	4dd\	-quae	.	.	.	.	.
.	.	.	.	.	.	.	.	.	.	.	.	.	8e\	-per	.	.	.	.	.	.	.	.
*	*	*	*	*	*	*	*	*	*	*	*	*	*	*ij	*	*	*	*	*	*	*	*
4BB/	.	.	4BB/	8r	.	8r	4BB/	-per	.	8r	.	.	4g\	ſem-	.	8r	.	.	.	.	.	.
.	.	.	.	8dd\L	.	8dd\L	.	.	.	8B\	hic	.	.	.	.	8dd\	ſem-	.	.	.	.	.
!	!	!	!	!	!	!	!LO:PB:g=original	!	!	!	!	!	!	!	!	!	!	!	!	!	!	!
8r	.	.	8r	8b\	.	8b\	8r	.	.	8G/	et	.	8g\	-per	.	8b\	-per	.	.	.	.	.
*	*	*	*	*	*	*	*	*	*	*	*	*	*	*Xij	*	*	*	*	*	*	*	*
8E\	.	.	8E\	8b\J	.	8b\J	8E\	ſem-	.	8E/	u-	.	8g\	pre-	.	8b\	pre-	.	.	.	.	.
!	!	!	!	!LO:PB:g=original	!	!	!	!	!	!	!	!	!	!	!	!	!	!	!	!	!	!
8C#/L	6 5	.	8C#/L	4cc#\	.	4cc#\	8C#/	-per	.	4A/	-bi-	.	8e\	-ca-	.	4cc#\	-ca-	.	.	.	.	.
8AA/J	.	.	8AA/J	.	.	.	8AA/	pre-	.	.	.	.	8e\	-re	.	.	.	.	.	.	.	.
=88	=88	=88	=88	=88	=88	=88	=88	=88	=88	=88	=88	=88	=88	=88	=88	=88	=88	=88	=88	=88	=88	=88
!	!	!	!	!	!	!	!	!	!	!	!	!	!	!	!	!	!	!	!LO:SIC:s:o=:v:brak kreski taktowej	!	!	!
2D/	.	.	2D/	8dd\L	.	8dd\L	2D\	-ca-	.	4A/	-que	.	8f#\	ſem-	.	8dd,<\	-re	.	4r	.	4r	.
.	.	.	.	8a\J	.	8a\J	.	.	.	.	.	.	8f#,<\	-per	.	8a\	pro-	.	.	.	.	.
!	!	!	!	!LO:TX:b:t=Cat	!	!	!	!	!	!	!	!	!	!	!	!	!	!	!	!	!	!
.	.	.	.	4a/	.	4a/	.	.	.	4F#/	ſem-	.	4d\	hic	.	(4b\	-no-	.	4f#/	.	4dd\	.
!	!	!	!	!	!	!	!	!	!	!LO:PB:g=original	!	!	!	!	!	!	!	!	!	!	!	!
8D/L	4 2	.	8D/L	4g/	.	4g/	8D/	-re	.	8D,</	-per	.	8e\	et	.	4g\)	.	.	8a/L	.	8ee\L	.
8C#/J	6 5	.	8C#/J	.	.	.	8C#/	pro-	.	8A/	pre-	.	8e\	u-	.	.	.	.	8a/J	.	8ee\J	.
4D/	.	.	4D/	4f#/	.	4f#/	(4D/	-no-	.	4A/	-ca-	.	8f#\	-bi-	.	4f#/	-bis	.	8dd\L	.	8ff#\L	.
.	.	.	.	.	.	.	.	.	.	.	.	.	8d\	-que	.	.	.	.	8a\J	.	8dd\J	.
=89	=89	=89	=89	=89	=89	=89	=89	=89	=89	=89	=89	=89	=89	=89	=89	=89	=89	=89	=89	=89	=89	=89
!!pagebreak:original
!	!	!	!	!	!	!	!	!	!	!	!	!	!	!	!	!LO:SIC:s:o=:v:brak kreski taktowej	!	!	!	!	!	!
8C#/L	.	.	8C#/L	1r	.	8r	4C#/)	.	.	4A,</	-re	.	4a\	ſem-	.	1r	.	.	4ee\	.	4aa\	.
8C#/J	.	.	8C#/J	.	.	8ee\L	.	.	.	.	.	.	.	.	.	.	.	.	.	.	.	.
8D\L	.	.	8D\L	.	.	8ff#\	8D/	-bis	.	8A/	ſem-	.	4f#\	-per	.	.	.	.	4dd\	.	4ff#\	.
8F#\J	.	.	8F#\J	.	.	8aa\J	8F#\	pre-	.	8A/	-per	.	.	.	.	.	.	.	.	.	.	.
*	*	*	*	*	*	*	*	*	*	*	*ij	*	*	*	*	*	*	*	*	*	*	*
8D/L	.	.	8D/L	.	.	8ff#\L	8D/	-ca-	.	4B\	ſem-	.	8r	.	.	.	.	.	8r	.	8r	.
8BB/J	.	.	8BB/J	.	.	8dd\J	8BB/	-re	.	.	.	.	8b\	ſem-	.	.	.	.	8ff#\L	.	8bb\L	.
8r	.	.	8r	.	.	4ee\	8r	.	.	4B\	-per	.	8g#X\	-pe	.	.	.	.	8ee\	.	8gg#X\	.
*	*	*	*	*	*	*	*	*	*	*	*Xij	*	*	*	*	*	*	*	*	*	*	*
!	!	!	!	!	!	!	!	!	!	!	!	!	!LO:PB:g=original	!	!	!	!	!	!	!	!	!
8E\	#	.	8E\	.	.	.	8E\	pro-	.	.	.	.	8e\	pre-	.	.	.	.	8ee\J	.	8ee\J	.
!LO:TX:b:t=VerteCito Cito	!	!	!	!	!	!	!	!	!	!	!	!	!	!	!	!	!	!	!	!	!	!
=90	=90	=90	=90	=90	=90	=90	=90	=90	=90	=90	=90	=90	=90	=90	=90	=90	=90	=90	=90	=90	=90	=90
!LO:PB:g=original	!	!	!	!LO:SIC:s:o=:v:brak kreski taktowej	!	!	!	!	!	!	!	!	!	!	!	!LO:SIC:s:o=:v:brak kreski taktowej	!	!	!	!	!	!
8C#/L	6	.	8C#/L	2r	.	8ff#\L	8C#/L	-no-	.	4c#\	pro-	.	2a\	-ca-	.	2r	.	.	4ee\	.	2aa\	.
8AA/J	.	.	8AA/J	.	.	8aa\J	8AA/J	.	.	.	.	.	.	.	.	.	.	.	.	.	.	.
4BB/	7	.	4BB/	.	.	4ff#\	4BB/	.	.	2B\	-no-	.	.	.	.	.	.	.	8dd\L	.	.	.
.	.	.	.	.	.	.	.	.	.	.	.	.	.	.	.	.	.	.	8ff#\J	.	.	.
4E\	4#	.	4E\	4r	.	4ee\	4E\	.	.	.	.	.	8a,<\	-re	.	4r	.	.	8ee\L	.	8aa\L	.
.	.	.	.	.	.	.	.	.	.	.	.	.	8g#X\	pro-	.	.	.	.	8ee\J	.	8gg#X\J	.
!	!	!	!	!	!	!LO:TX:a:t=P:problem:mixedbeam	!	!	!	!	!	!	!	!	!	!	!	!	!	!	!	!
8AA/	.	.	8AA/	4a/	.	8ee\L	4AA/	-bis	.	4c#\	-bis	.	4a\	-no-	.	4a\	hic	.	4ee\	.	4aa\	.
8r	.	.	8r	.	.	8a/J	.	.	.	.	.	.	.	.	.	.	.	.	.	.	.	.
=91	=91	=91	=91	=91	=91	=91	=91	=91	=91	=91	=91	=91	=91	=91	=91	=91	=91	=91	=91	=91	=91	=91
4D/	.	.	4D/	8b/L	.	8b/L	4D/	hic	.	8r	.	.	4f#\	-bis	.	8b\	et	.	4dd\	.	4ff#\	.
.	.	.	.	8b/	.	8b/	.	.	.	8d\	ſem-	.	.	.	.	8b\	u-	.	.	.	.	.
8E\L	.	.	8E\L	8cc#/	.	8cc#/	8E\	et	.	8.c#\	-per	.	(8g\L	pre-	.	8cc#\	-bi-	.	4r	.	4r	.
8E\J	6	.	8E\J	8cc#/J	.	8a/J	8E\	u-	.	.	.	.	8a\J)	.	.	8a\	-que	.	.	.	.	.
*	*	*	*	*	*	*	*	*	*	*	*ij	*	*	*	*	*	*	*	*	*	*	*
.	.	.	.	.	.	.	.	.	.	16e\	ſem-	.	.	.	.	.	.	.	.	.	.	.
!	!	!	!	!	!	!	!	!	!	!	!	!	!	!	!	!LO:PB:g=original	!	!	!	!	!	!
8F#\L	6	.	8F#\L	4dd\	.	4dd\	8F#\	-bi-	.	8d\	-per	.	(8a\L	-ca-	.	4dd\	ſem-	.	2r	.	2r	.
*	*	*	*	*	*	*	*	*	*	*	*Xij	*	*	*	*	*	*	*	*	*	*	*
8D\J	.	.	8D\J	.	.	.	8D\	-que	.	8d\	pre-	.	8f#\J)	.	.	.	.	.	.	.	.	.
4G\	7	.	4G\	4b\	.	4b/	4G\	ſem-	.	4d\	-ca-	.	8f#,<\	-re	.	4b\	-per	.	.	.	.	.
.	.	.	.	.	.	.	.	.	.	.	.	.	8b\	ſem-	.	.	.	.	.	.	.	.
=92	=92	=92	=92	=92	=92	=92	=92	=92	=92	=92	=92	=92	=92	=92	=92	=92	=92	=92	=92	=92	=92	=92
4E\	.	.	4E\	8r	.	8r	4E\	-per	.	4e\	-re	.	8g\	-per	.	8r	.	.	4r	.	8r	.
.	.	.	.	8ee\L	.	8ee\L	.	.	.	.	.	.	8e\	pre-	.	8ee\	ſem-	.	.	.	8ee\L	.
8r	.	.	8r	8cc#\	.	8cc#\	8r	.	.	8r	.	.	(4e\	-ca-	.	8cc#\	-per	.	8r	.	8ee\	.
8A\	.	.	8A\	8a\J	.	8a\J	8A\	ſem-	.	8c#\	ſem-	.	.	.	.	8a\	prae-	.	8a/	.	8ee\J	.
!	!	!	!LO:PB:g=original	!	!	!	!	!	!	!	!	!	!	!	!	!	!	!	!	!	!	!
8F#\L	6	.	8F#\L	2dd\	.	2dd\	8F#\	-per	.	8A\	-per	.	4f#\)	.	.	[2dd\	-ca-	.	8a/L	.	8ff#\L	.
8D\J	.	.	8D\J	.	.	.	8D\	pre-	.	8d\	pre-	.	.	.	.	.	.	.	8a/J	.	8ff#\	.
!	!	!	!	!	!	!	!	!	!	!	!	!	!	!	!	!	!	!	!LO:PB:g=original	!	!	!
4E\	7	.	4E\	.	.	.	4E\	-ca-	.	4B\	-ca-	.	4g\	-re	.	.	.	.	8ee\L	.	8gg\	.
.	.	.	.	.	.	.	.	.	.	.	.	.	.	.	.	.	.	.	8ee\J	.	8gg\J	.
=93	=93	=93	=93	=93	=93	=93	=93	=93	=93	=93	=93	=93	=93	=93	=93	=93	=93	=93	=93	=93	=93	=93
!	!	!	!	!	!	!LO:PB:g=original	!LO:PB:g=original	!	!	!LO:PB:g=original	!	!	!	!	!	!	!	!	!	!	!	!
4A\	4	.	4A\	8dd\L	.	8dd\L	4A\	.	.	2A/	-re	.	8r	.	.	(8dd\L]	.	.	8r	.	8r	.
.	3	.	.	8cc#\J	.	8cc#\J	.	.	.	.	.	.	8g\	hic	.	8cc#\J)	.	.	8ee\L	.	8gg\L	.
4D/	.	.	4D/	4dd\	.	4dd\	4D/	-re	.	.	.	.	8f#\	et	.	4dd\	-re	.	8dd\	.	8ff#\	.
.	.	.	.	.	.	.	.	.	.	.	.	.	8a\	u-	.	.	.	.	8a\J	.	8gg\J	.
4r	.	.	4r	2r	.	2r	4r	.	.	8r	.	.	(8f#\L	-bi-	.	2r	.	.	4dd\	.	8ff#\L	.
*	*	*	*	*	*	*	*	*	*	*	*ij	*	*	*	*	*	*	*	*	*	*	*
.	.	.	.	.	.	.	.	.	.	8d\	ſem-	.	8d\J)	.	.	.	.	.	.	.	8dd\J	.
8r	.	.	8r	.	.	.	8r	.	.	8d\	-per	.	4g\	-que	.	.	.	.	8dd\L	.	4gg\	.
8E\	.	.	8E\	.	.	.	8E\	ſem-	.	8B\	pre-	.	.	.	.	.	.	.	8dd\J	.	.	.
=94	=94	=94	=94	=94	=94	=94	=94	=94	=94	=94	=94	=94	=94	=94	=94	=94	=94	=94	=94	=94	=94	=94
!	!	!	!	!	!	!	!	!	!	!	!	!	!	!	!	!	!	!	!LO:SIC:s:o=:v:brak taktu	!	!	!
8C#/L	6 5	.	8C#/L	8.ee\L	.	8.ee\L	8C#/	-per	.	4c#\	-ca-	.	8.a\	fi-	.	8.ee\	Fi-	.	1ryy	.	8.aa\L	.
8AA/J	.	.	8AA/J	.	.	.	8AA/	pre-	.	.	.	.	.	.	.	.	.	.	.	.	.	.
!	!	!	!	!	!	!LO:N:vis=8	!	!	!	!	!	!	!	!	!	!	!	!	!	!	!	!
.	.	.	.	16ee\Jk	.	16ee\Jk	.	.	.	.	.	.	16a\	-li-	.	16ee\	-li-	.	.	.	16aa\Jk	.
4D/	.	.	4D/	4dd\	.	4dd\	4D/	-ca-	.	4d\	-re	.	4f#\	-um	.	4dd\	-um	.	.	.	4ff#\	.
!	!	!	!	!	!	!	!	!	!	!	!	!	!LO:TX:b:t=Verte Cito	!	!	!	!	!	!	!	!	!
!	!	!	!	!	!	!	!	!	!	!	!	!	!LO:LB:g=original	!	!	!	!	!	!	!	!LO:PB:g=original	!
8D\L	.	.	8D\L	4dd\	.	8dd\L	8D/	-re	.	8r	.	.	(8f#\L	De-	.	4dd\	De-	.	.	.	8ff#\L	.
8F#\	.	.	8F#\	.	.	8dd\	8F#\	ſem-	.	8A/	ſem-	.	8a\J)	.	.	.	.	.	.	.	8aa\J	.
8D\	.	.	8D\	4dd\	.	8dd\	8D/	-per	.	8A/	-per	.	8f#,<\	-i	.	4dd\	-i	.	.	.	8ff#\L	.
8BB\J	.	.	8BB\J	.	.	8dd\J	8BB/	pre-	.	8B\	pre-	.	8f#\	pro-	.	.	.	.	.	.	8ff#\J	.
=95	=95	=95	=95	=95	=95	=95	=95	=95	=95	=95	=95	=95	=95	=95	=95	=95	=95	=95	=95	=95	=95	=95
!LO:PB:g=original	!	!	!	!	!	!	!	!	!	!	!	!	!	!	!	!	!	!	!	!	!	!
4E\	.	.	4E\	4ee\	.	4ee\	(4E\	-ca-	.	4B\	-ca-	.	4g\	-no-	.	4ee\	ſem-	.	4ee\	.	4gg\	.
4F#\	6	.	4F#\	8dd\L	.	8dd\L	4F#\)	.	.	4A,<\	-re	.	4f#\	-bis	.	8dd\	-per	.	4dd\	.	4ff#\	.
.	.	.	.	8dd\J	.	8dd\J	.	.	.	.	.	.	.	.	.	8dd\	pro-	.	.	.	.	.
*	*	*	*	*	*	*	*	*	*	*	*Xij	*	*	*	*	*	*	*	*	*	*	*
4.G\	7	.	4.G\	4b/	.	4.b/	4.G\	-re	.	4B\	ſem-	.	4f#\	ſem-	.	4b\	-no-	.	4dd\	.	4ff#\	.
.	6	.	.	8b/L	.	.	.	.	.	8B\	-per	.	8e\	-per	.	8b,<\	-bis	.	8ee\L	.	8ee\L	.
*	*	*	*	*	*	*8\left	*	*	*	*	*	*	*	*	*	*	*	*	*	*	*	*
8F#\	.	.	8F#\	8dd/J	.	8dd\	8F#\	pro-	.	8B\	pre-	.	8f#\	pre-	.	8dd\	pro-	.	8a\J	.	8ff#\J	.
=96	=96	=96	=96	=96	=96	=96	=96	=96	=96	=96	=96	=96	=96	=96	=96	=96	=96	=96	=96	=96	=96	=96
!	!	!	!	!LO:PB:g=original	!	!	!	!	!	!	!	!	!	!	!	!	!	!	!	!	!	!
4F#\	4 #2	.	4F#\	4cc#\	.	4cc#\	(4F#\	-no-	.	2B\	-ca-	.	2g#X\	-ca-	.	4cc#\	-no-	.	4dd\	.	4ff#\	.
*	*	*	*	*	*	*8\right	*	*	*	*	*	*	*	*	*	*	*	*	*	*	*	*
4E#X\	6 5	.	4E#X\	8cc#\L	.	8cc#\L	4E#X\)	-bis	.	.	.	.	.	.	.	8cc#,<\	-bis	.	4r	.	4r	.
.	.	.	.	8cc#\J	.	8cc#\J	.	.	.	.	.	.	.	.	.	8cc#\	pro-	.	.	.	.	.
!	!	!	!	!	!	!	!	!	!	!	!	!	!	!	!	!LO:PB:g=original	!	!	!	!	!	!
*	*	*	*	*	*	*	*	*	*	*	*	*	*	*	*	*	*ij	*	*	*	*	*
4F#\	.	.	4F#\	4cc#\	.	4cc#\	4F#\	.	.	4A#X,<\	-re	.	4f#\	-re	.	4cc#\	-no-	.	2r	.	2r	.
*	*	*	*	*	*	*	*	*	*	*	*ij	*	*	*	*	*	*	*	*	*	*	*
4A#X\	6	.	4A#X\	4cc#\	.	4cc#\	4A#X\	ſem-	.	4B\	ſem-	.	4r	.	.	4cc#\	-bis	.	.	.	.	.
*	*	*	*	*	*	*	*	*	*	*	*	*	*	*	*	*	*Xij	*	*	*	*	*
=97	=97	=97	=97	=97	=97	=97	=97	=97	=97	=97	=97	=97	=97	=97	=97	=97	=97	=97	=97	=97	=97	=97
8r	.	.	8r	4b/	.	4b/	8B\	-per	.	8d\	-per	.	4f#\	fi-	.	4b\	ſem-	.	0r	.	0r	.
*	*	*	*	*	*	*	*	*ij	*	*	*	*	*	*	*	*	*	*	*	*	*	*
8B\L	.	.	8B\L	.	.	.	8B\	ſem-	.	8d\	pre-	.	.	.	.	.	.	.	.	.	.	.
8G\	.	.	8G\	8b/L	.	8b/L	8G\	-per	.	8B\	-ca-	.	8e\	-li-	.	8b\	-per	.	.	.	.	.
*	*	*	*	*	*	*	*	*Xij	*	*	*	*	*	*	*	*	*	*	*	*	*	*
8E\J	.	.	8E\J	8b/J	.	8b/J	8E\	pre-	.	8G/	-re	.	8e\	-um	.	8b\	prae-	.	.	.	.	.
*	*	*	*	*	*	*	*	*	*	*	*Xij	*	*	*	*	*	*	*	*	*	*	*
2AA#X/	.	.	2AA#X/	2cc#\	.	2cc#\	2AA#X/	-ca-	.	4F#/	ſem-	.	2e\	De-	.	2cc#\	-ca-	.	.	.	.	.
.	.	.	.	.	.	.	.	.	.	4F#/	-per	.	.	.	.	.	.	.	.	.	.	.
=98	=98	=98	=98	=98	=98	=98	=98	=98	=98	=98	=98	=98	=98	=98	=98	=98	=98	=98	=98	=98	=98	=98
!!pagebreak:original
!	!	!	!	!	!	!	!	!	!	!LO:PB:g=original	!	!	!	!	!	!	!	!	!	!	!	!
4BB/	.	.	4BB/	4b\	.	4b/	4BB/	-re	.	8.F#/	fi-	.	4d,<\	-i	.	4cc#,<\	-re	.	.	.	.	.
.	.	.	.	.	.	.	.	.	.	16F#/	-li-	.	.	.	.	.	.	.	.	.	.	.
4.E\	.	.	4.E\	8b/L	.	4.b/	4.E\	Fi-	.	4G,</	-um	.	4e\	ſem-	.	4cc#\	fi-	.	.	.	.	.
.	.	.	.	8b/	.	.	.	.	.	.	.	.	.	.	.	.	.	.	.	.	.	.
*	*	*	*	*	*	*	*	*	*	*	*ij	*	*	*	*	*	*	*	*	*	*	*
.	.	.	.	8b/	.	.	.	.	.	8.B\	fi-	.	4g\	-per	.	8b\	-li-	.	.	.	.	.
8E\	.	.	8E\	8ee/J	.	8ee\	8E\	-li-	.	.	.	.	.	.	.	8ee\	-um	.	.	.	.	.
.	.	.	.	.	.	.	.	.	.	16G/	-li-	.	.	.	.	.	.	.	.	.	.	.
4F#\	.	.	4F#\	4dd\	.	4dd\	4F#\	-um	.	4A/	-um	.	4f#\	pre-	.	4dd\	De-	.	.	.	.	.
*	*	*	*	*	*	*	*	*	*	*	*Xij	*	*	*	*	*	*	*	*	*	*	*
=99	=99	=99	=99	=99	=99	=99	=99	=99	=99	=99	=99	=99	=99	=99	=99	=99	=99	=99	=99	=99	=99	=99
!	!	!	!	!	!	!	!LO:PB:g=original	!	!	!	!	!	!	!	!	!	!	!	!	!	!	!
!	!	!	!	!	!	!	!	!	!	!	!	!	!	!	!	!	!	!	!	!	!LO:SIC:s:o=:v:brak kreski taktowej	!
2G\	7	.	2G\	4b/	.	4b\	2G\	Dei	.	2B\	De-	.	4f#\	-ca-	.	4b\	-i	.	2r	.	4r	.
.	6	.	.	4ee\	.	4ee\	.	.	.	.	.	.	4e\	-re	.	4ee\	pro-	.	.	.	8r	.
.	.	.	.	.	.	.	.	.	.	.	.	.	.	.	.	.	.	.	.	.	8ee\	.
!	!	!	!	!	!	!	!	!	!	!	!	!	!LO:PB:g=original	!	!	!	!	!	!	!	!	!
4G\	6 4 2	.	4G\	4cc#\	.	4cc#\	4G\	.	.	4A,<\	-i	.	4e\	pro-	.	(4cc#\	-no-	.	8r	.	8ee\L	.
.	.	.	.	.	.	.	.	.	.	.	.	.	.	.	.	.	.	.	8a/L	.	8ee\J	.
4F#\	6	.	4F#\	4dd\	.	4dd\	4F#\	pro	.	4A\	pro-	.	8f#\L	-no-	.	4dd\)	.	.	8a/	.	8ff#\L	.
.	.	.	.	.	.	.	.	.	.	.	.	.	8a\J	.	.	.	.	.	8dd/J	.	8aa\J	.
=100	=100	=100	=100	=100	=100	=100	=100	=100	=100	=100	=100	=100	=100	=100	=100	=100	=100	=100	=100	=100	=100	=100
!	!	!	!LO:PB:g=original	!	!	!	!	!	!	!	!	!	!	!	!	!	!	!	!	!	!	!
2B\	7	.	2B\	2dd\	.	2dd\	2B\	no-	.	(4B\	-no-	.	4a\	.	.	[1dd\	.	.	8ff#\L	.	4aa\	.
.	6	.	.	.	.	.	.	.	.	.	.	.	.	.	.	.	.	.	8ee\J	.	.	.
.	.	.	.	.	.	.	.	.	.	4e\)	.	.	4g#X\	.	.	.	.	.	4dd\	.	4gg#X\	.
4A\	.	.	4A\	2dd\	.	2dd\	(4A\	.	.	2e\	-bis	.	(4a\	.	.	.	.	.	4ee\	.	4aa\	.
4G#X\	6 5	.	4G#X\	.	.	.	4G#X\)	.	.	.	.	.	4b\)	.	.	.	.	.	4ee\	.	4bb\	.
=101	=101	=101	=101	=101	=101	=101	=101	=101	=101	=101	=101	=101	=101	=101	=101	=101	=101	=101	=101	=101	=101	=101
!LO:PB:g=original	!	!	!	!	!	!	!	!	!	!	!	!	!	!	!	!	!	!	!	!	!	!
4A\	.	.	4A\	4.dd\	.	4.dd\	4A\	.	.	4.e\	ſem-	.	2a\	.	.	4.dd\]	.	.	4.ee\	.	2aa\	.
4AA/	.	.	4AA/	.	.	.	4AA/	.	.	.	.	.	.	.	.	.	.	.	.	.	.	.
!	!	!	!	!LO:SIC:s:o=:v: left flag	!	!	!	!	!	!	!	!	!	!	!	!	!	!	!	!	!	!
*	*	*	*	*8\left	*	*8\left	*	*	*	*	*	*	*	*	*	*	*	*	*	*	*	*
.	.	.	.	8cc#\	.	8cc#\	.	.	.	8e\	-per	.	.	.	.	8cc#\	.	.	8ee\	.	.	.
*	*	*	*	*	*	*	*	*	*	*	*ij	*	*	*	*	*	*	*	*	*	*	*
2D/	.	.	2D/	2dd\	.	2dd\	2D/	-bis	.	4d\	ſem-	.	2f#\	-bis	.	2dd\	-bis	.	2ff#\	.	2aa\	.
.	.	.	.	.	.	.	.	.	.	8d,<\	-per	.	.	.	.	.	.	.	.	.	.	.
*	*	*	*	*	*	*	*	*	*	*	*Xij	*	*	*	*	*	*	*	*	*	*	*
.	.	.	.	.	.	.	.	.	.	8d\	pre-	.	.	.	.	.	.	.	.	.	.	.
=102	=102	=102	=102	=102	=102	=102	=102	=102	=102	=102	=102	=102	=102	=102	=102	=102	=102	=102	=102	=102	=102	=102
!	!	!	!	!	!	!LO:PB:g=original	!	!	!	!	!	!	!	!	!	!	!	!	!	!	!	!
!	!	!	!	!	!	!LO:SIC:s:o=:v: 1 dodana górna do końca utworu	!LO:SIC:s:o=:v:brak kreski taktowej	!	!	!	!	!	!	!	!	!	!	!	!	!	!	!
*clefC4	*	*	*	*	*	*	*	*	*	*	*	*	*	*	*	*	*	*	*	*	*	*
4d\	.	.	0r	4dd\	.	4aa\	0r	.	.	4d\	-ca-	.	4f#\	ſem-	.	4dd\	ſem-	.	0r	.	0r	.
8d\L	.	.	.	8dd\L	.	8aa\L	.	.	.	8d,<\	-re	.	8f#\	-per	.	8dd\	-per	.	.	.	.	.
8c#\J	.	.	.	8dd\J	.	8aa\J	.	.	.	8d\	pro-	.	8f#\	pre-	.	8dd\	prae-	.	.	.	.	.
4B\	7	.	.	4dd\	.	4bb\	.	.	.	(4B\	-no-	.	4g#X\	-ca-	.	4dd\	-ca-	.	.	.	.	.
4e\	7 #	.	.	4b/	.	4bb\	.	.	.	4e\)	.	.	4g#\	-re	.	4b\	-re	.	.	.	.	.
!	!	!	!	!	!	!	!	!	!	!	!	!	!	!	!	!LO:TX:b:t=Verte Cito	!	!	!	!	!	!
=103	=103	=103	=103	=103	=103	=103	=103	=103	=103	=103	=103	=103	=103	=103	=103	=103	=103	=103	=103	=103	=103	=103
!	!	!	!	!	!	!	!	!	!	!	!	!	!	!	!	!LO:PB:g=original	!	!	!	!	!	!
4A/	.	.	.	4cc#\	.	4aa\	.	.	.	4A,</	-bis	.	4a\	fi-	.	4cc#\	Fi-	.	.	.	.	.
!	!	!	!	!	!	!	!	!	!	!LO:TX:b:t=Verteciro Cito	!	!	!	!	!	!	!	!	!	!	!	!
!	!	!	!	!	!	!	!	!	!	!LO:LB:g=original	!	!	!	!	!	!	!	!	!	!	!	!
8A\L	.	.	.	8cc#\L	.	8aa\L	.	.	.	8.A\	Fi-	.	8a\	-li-	.	8cc#\	-li-	.	.	.	.	.
8B\J	.	.	.	8dd\J	.	8dd\J	.	.	.	.	.	.	8g\	-um	.	8dd\	-um	.	.	.	.	.
.	.	.	.	.	.	.	.	.	.	16B\	-li-	.	.	.	.	.	.	.	.	.	.	.
4c#\	.	.	.	4ee\	.	4aa\	.	.	.	4c#\	-um	.	4e\	De-	.	4ee\	De-	.	.	.	.	.
8d\L	.	.	.	8dd\L	.	8aa\L	.	.	.	(8d\L	De-	.	8f#\	-i	.	8dd\	-i	.	.	.	.	.
8B\J	.	.	.	8dd\J	.	8bb\J	.	.	.	8B\J)	.	.	8f#\	pre-	.	8dd\	pro-	.	.	.	.	.
=104	=104	=104	=104	=104	=104	=104	=104	=104	=104	=104	=104	=104	=104	=104	=104	=104	=104	=104	=104	=104	=104	=104
!	!	!	!	!LO:PB:g=original	!	!	!	!	!	!	!	!	!	!	!	!	!	!	!	!	!	!
2G#X/	.	.	1r	4.dd\	.	4.bb\	1r	.	.	2G#X/	.	.	2e\	-ca-	.	2cc#\	-no-	.	1r	.	1r	.
!	!	!	!	!LO:SIC:s:o=:v: left flag	!	!LO:SIC:s:o=:v: left flag	!	!	!	!	!	!	!	!	!	!	!	!	!	!	!	!
.	.	.	.	8dd\	.	8bb\	.	.	.	.	.	.	.	.	.	.	.	.	.	.	.	.
4A/	.	.	.	4cc#\	.	4aa\	.	.	.	4A/	-i	.	4e\	-re	.	4b\	-bis	.	.	.	.	.
4r	.	.	.	4r	.	4r	.	.	.	4r	.	.	4r	.	.	4r	.	.	.	.	.	.
=105	=105	=105	=105	=105	=105	=105	=105	=105	=105	=105	=105	=105	=105	=105	=105	=105	=105	=105	=105	=105	=105	=105
!	!	!	!	!	!	!	!	!	!	!	!	!	!LO:PB:g=original	!	!	!	!	!	!LO:PB:g=original	!	!	!
!	!	!	!	!	!	!	!LO:SIC:s:o=:v:brak kreski taktowej	!	!	!	!	!	!	!	!	!	!	!	!	!	!LO:SIC:s:o=:v:brak kreski taktowej	!
*clefF4	*	*	*	*	*	*	*	*	*	*	*	*	*	*	*	*	*	*	*	*	*	*
4D/	.	.	4D/	4dd\	.	4aa\	4D/	ſem-	.	4A\	hic	.	4f#\	Fi-	.	4dd\	Fi-	.	4dd\	.	4ff#\	.
8D/L	.	.	8D/L	8dd\L	.	8ff#\L	8D/	-per	.	8A\	et	.	8f#\	-li-	.	8dd\	-li-	.	8dd\L	.	8ff#\L	.
8D/J	.	.	8D/J	8dd\J	.	8ff#\J	8D/	pre-	.	8A\	u-	.	8f#\	-um	.	8dd\	-um	.	8dd\J	.	8ff#\J	.
!LO:PB:g=original	!	!	!	!	!	!	!	!	!	!	!	!	!	!	!	!	!	!	!	!	!	!
4BB/	7	.	4BB/	4dd\	.	4.bb\	4BB/	-ca-	.	4B\	-bi-	.	4f#\	De-	.	4dd\	De-	.	4dd\	.	4ff#\	.
4E\	7 #	.	4E\	4b/	.	.	4E\	-re	.	4B\	-que	.	4g#X\	-i	.	4b\	-i	.	4ee\	.	4gg#X\	.
.	.	.	.	.	.	8bb\	.	.	.	.	.	.	.	.	.	.	.	.	.	.	.	.
=106	=106	=106	=106	=106	=106	=106	=106	=106	=106	=106	=106	=106	=106	=106	=106	=106	=106	=106	=106	=106	=106	=106
4AA/	.	.	4AA/	4cc#\	.	4aa\	4AA/	Fi-	.	4c#\	ſem-	.	4a\	ſem-	.	4cc#\	ſem-	.	4ee\	.	4aa\	.
8AA/L	.	.	8AA/L	8cc#\L	.	8ccc#\L	8AA/	-li-	.	8e,<\	-per	.	8a\	-per	.	8cc#\	-per	.	8ee\L	.	8aa\L	.
8BB/J	6/	.	8BB/J	8dd\J	.	8bb\J	8BB/	-um	.	8B\	pre-	.	8g#X\	pre-	.	8cc#\	pre-	.	8dd\J	.	8gg#X\J	.
!	!	!	!	!	!	!	!	!	!	!	!	!	!	!	!	!	!	!	!	!	!LO:PB:g=original	!
4C#/	6	.	4C#/	4cc#\	.	4aa\	4C#/	De-	.	4e\	-ca-	.	4a\	-ca-	.	4cc#\	-ca-	.	4ee\	.	4aa\	.
8D/L	.	.	8D/L	8a/L	.	8aa\L	8D/	-i	.	8d\	-re	.	8f#\	-re	.	8a\	-re	.	8ff#\L	.	8ff#\L	.
8BB/J	.	.	8BB/J	8dd/J	.	8bb\J	8BB/	pro	.	8d\	pro-	.	8f#\	pro-	.	8dd\	pro-	.	8dd\J	.	8ff#\J	.
=107	=107	=107	=107	=107	=107	=107	=107	=107	=107	=107	=107	=107	=107	=107	=107	=107	=107	=107	=107	=107	=107	=107
!	!	!	!	!	!	!	!	!	!	!	!	!	!	!	!	!LO:PB:g=original	!	!	!	!	!	!
2GG#X/	.	.	2GG#X/	4.dd\	.	4bb\	2GG#X/	no-	.	2B\	-no-	.	2e\	-no-	.	2dd\	-no-	.	8ee\L	.	8ee\L	.
.	.	.	.	.	.	.	.	.	.	.	.	.	.	.	.	.	.	.	16ee\L	.	16ee\L	.
.	.	.	.	.	.	.	.	.	.	.	.	.	.	.	.	.	.	.	16ee\JJ	.	16ee\JJ	.
.	.	.	.	.	.	4ddd\	.	.	.	.	.	.	.	.	.	.	.	.	8ee\L	.	8ee\L	.
!	!	!	!	!LO:SIC:s:o=:v: left flag	!	!	!	!	!	!	!	!	!	!	!	!	!	!	!	!	!	!
.	.	.	.	8dd\	.	.	.	.	.	.	.	.	.	.	.	.	.	.	8dd\J	.	8ee\J	.
4AA/	.	.	4AA/	4cc#\	.	4ddd\	4AA/	-bis	.	4A\	-bis	.	(8e\L	.	.	(4cc#\	.	.	4a/	.	8ee\L	.
.	.	.	.	.	.	.	.	.	.	.	.	.	8a\J)	.	.	.	.	.	.	.	8aa\J	.
!	!	!	!	!	!	!	!	!	!	!LO:PB:g=original	!	!	!	!	!	!	!	!	!	!	!	!
4BB/	.	.	4BB/	4dd\	.	4ddd\	4BB/	pro	.	(8d\L	pro-	.	4g#X\	.	.	4dd\)	.	.	4dd\	.	4gg#X\	.
.	.	.	.	.	.	.	.	.	.	8e\J)	.	.	.	.	.	.	.	.	.	.	.	.
=108	=108	=108	=108	=108	=108	=108	=108	=108	=108	=108	=108	=108	=108	=108	=108	=108	=108	=108	=108	=108	=108	=108
2AA/	.	.	2AA/	4.dd\	.	4ddd\	2AA/	no-	.	2e\	-no-	.	2a\	.	.	4.dd\	.	.	4.ee\	.	4.aa\	.
.	.	.	.	.	.	4aa\	.	.	.	.	.	.	.	.	.	.	.	.	.	.	.	.
!	!	!	!	!LO:SIC:s:o=:v: left flag	!	!	!	!	!	!	!	!	!	!	!	!	!	!	!	!	!	!
.	.	.	.	8cc#\	.	.	.	.	.	.	.	.	.	.	.	8cc#\	.	.	8ee\	.	8aa\	.
2DD/	.	.	2DD/	2dd\	.	2aa\	2D/	-bis	.	2d\	-bis	.	2f#\	-bis	.	2dd\	-bis	.	2ff#\	.	2aa\	.
=109	=109	=109	=109	=109	=109	=109	=109	=109	=109	=109	=109	=109	=109	=109	=109	=109	=109	=109	=109	=109	=109	=109
2d\	.	.	2d\	2dd\	.	2aa\	2d\	pro	.	2d\	Fi-	.	2f#\	pro-	.	2dd\	fi-	.	2r	.	8r	.
.	.	.	.	.	.	.	.	.	.	.	.	.	.	.	.	.	.	.	.	.	4d/	.
!	!	!	!	!	!	!	!	!	!	!	!	!	!	!	!	!	!	!	!	!	!LO:N:vis=8	!
.	.	.	.	.	.	.	.	.	.	.	.	.	.	.	.	.	.	.	.	.	16d/LL	.
!	!	!	!	!	!	!	!	!	!	!	!	!	!	!	!	!	!	!	!	!	!LO:N:vis=8	!
.	.	.	.	.	.	.	.	.	.	.	.	.	.	.	.	.	.	.	.	.	16d/JJ	.
4B\	.	.	4B\	8dd\L	.	4bb\	4B\	no-	.	4d\	-li-	.	4f#\	-no-	.	4dd\	-li-	.	8r	.	8d/L	.
.	.	.	.	8dd\	.	.	.	.	.	.	.	.	.	.	.	.	.	.	4d/	.	16d/L	.
.	.	.	.	.	.	.	.	.	.	.	.	.	.	.	.	.	.	.	.	.	16d/JJ	.
4F#\	.	.	4F#\	8dd\	.	4ddd\	4F#\	-bis	.	4A\	-um	.	4a\	-bis	.	4dd\	-um	.	.	.	16d/LL	.
.	.	.	.	.	.	.	.	.	.	.	.	.	.	.	.	.	.	.	.	.	16d/	.
.	.	.	.	8dd\J	.	.	.	.	.	.	.	.	.	.	.	.	.	.	16d/LL	.	16d/	.
.	.	.	.	.	.	.	.	.	.	.	.	.	.	.	.	.	.	.	16d/JJ	.	16d/JJ	.
=110	=110	=110	=110	=110	=110	=110	=110	=110	=110	=110	=110	=110	=110	=110	=110	=110	=110	=110	=110	=110	=110	=110
!	!	!	!	!	!	!	!	!	!	!	!	!	!LO:PB:g=original	!	!	!	!	!	!	!	!	!
!	!	!	!	!LO:TX:a:t=adagio	!	!	!	!	!	!	!	!	!	!	!	!	!	!	!	!	!	!
2G#X\	6 5	.	2G#X\	2cc#\	.	4.ddd\	2G#X\	Fi-	.	(4B\	De-	.	2b\	Fi-	.	2dd\	De-	.	8d/L	.	8d/L	.
.	.	.	.	.	.	.	.	.	.	.	.	.	.	.	.	.	.	.	16d/L	.	8d/	.
.	.	.	.	.	.	.	.	.	.	.	.	.	.	.	.	.	.	.	16d/JJ	.	.	.
.	.	.	.	.	.	.	.	.	.	4e\)	-i	.	.	.	.	.	.	.	16d/LL	.	8d/	.
.	.	.	.	.	.	.	.	.	.	.	.	.	.	.	.	.	.	.	16d/	.	.	.
.	.	.	.	.	.	8ddd\	.	.	.	.	.	.	.	.	.	.	.	.	16d/	.	8d/J	.
.	.	.	.	.	.	.	.	.	.	.	.	.	.	.	.	.	.	.	16d/JJ	.	.	.
!	!	!	!	!	!	!LO:PB:g=original	!	!	!	!	!	!	!	!	!	!	!	!	!LO:PB:g=original	!	!LO:PB:g=original	!
2A\	5 4	.	2A\	4dd\	.	4ddd\	2A\	-li-	.	2e\	.	.	2a\	-li-	.	4dd\	-i	.	8a/L	.	8a/L	.
.	.	.	.	.	.	.	.	.	.	.	.	.	.	.	.	.	.	.	8a/	.	16a/L	.
.	.	.	.	.	.	.	.	.	.	.	.	.	.	.	.	.	.	.	.	.	16a/JJ	.
.	x 3	.	.	4cc#\	.	4aa\	.	.	.	.	.	.	.	.	.	4cc#\	pro-	.	8a/	.	16a/LL	.
.	.	.	.	.	.	.	.	.	.	.	.	.	.	.	.	.	.	.	.	.	16a/	.
.	.	.	.	.	.	.	.	.	.	.	.	.	.	.	.	.	.	.	8a/J	.	16a/	.
.	.	.	.	.	.	.	.	.	.	.	.	.	.	.	.	.	.	.	.	.	16a/JJ	.
=111	=111	=111	=111	=111	=111	=111	=111	=111	=111	=111	=111	=111	=111	=111	=111	=111	=111	=111	=111	=111	=111	=111
!	!	!	!LO:PB:g=original	!	!	!	!	!	!	!	!	!	!	!	!	!	!	!	!	!	!	!
!	!	!	!	!	!	!	!	!	!	!	!	!	!	!	!	!	!	!	!LO:TX:a:t=P:problem:mixedbeam	!	!LO:TX:a:t=P:problem:mixedbeam	!
1B\	6/ 4 3	.	1B\	2dd\	.	2ddd\	1B\	-um	.	(2d\	pro-	.	1g#X\	-um	.	(1dd\	-no-	.	8dd\L	.	8dd\L	.
.	.	.	.	.	.	.	.	.	.	.	.	.	.	.	.	.	.	.	16d/L	.	8d/	.
.	.	.	.	.	.	.	.	.	.	.	.	.	.	.	.	.	.	.	16d/JJ	.	.	.
.	.	.	.	.	.	.	.	.	.	.	.	.	.	.	.	.	.	.	16d/LL	.	8d/	.
.	.	.	.	.	.	.	.	.	.	.	.	.	.	.	.	.	.	.	16d/	.	.	.
.	.	.	.	.	.	.	.	.	.	.	.	.	.	.	.	.	.	.	16d/	.	8d/J	.
.	.	.	.	.	.	.	.	.	.	.	.	.	.	.	.	.	.	.	16d/JJ	.	.	.
.	.	.	.	2dd\	.	2bb\	.	.	.	2e\)	-no-	.	.	.	.	.	.	.	8d/L	.	8d/L	.
.	.	.	.	.	.	.	.	.	.	.	.	.	.	.	.	.	.	.	8d/	.	16d/L	.
.	.	.	.	.	.	.	.	.	.	.	.	.	.	.	.	.	.	.	.	.	16d/JJ	.
.	.	.	.	.	.	.	.	.	.	.	.	.	.	.	.	.	.	.	8d/	.	16d/LL	.
.	.	.	.	.	.	.	.	.	.	.	.	.	.	.	.	.	.	.	.	.	16d/	.
.	.	.	.	.	.	.	.	.	.	.	.	.	.	.	.	.	.	.	8d/J	.	16d/	.
.	.	.	.	.	.	.	.	.	.	.	.	.	.	.	.	.	.	.	.	.	16d/JJ	.
=112	=112	=112	=112	=112	=112	=112	=112	=112	=112	=112	=112	=112	=112	=112	=112	=112	=112	=112	=112	=112	=112	=112
!LO:PB:g=original	!	!	!	!	!	!	!	!	!	!	!	!	!	!	!	!	!	!	!	!	!	!
*	*	*	*	*	*	*^	*	*	*	*	*	*	*	*	*	*	*	*	*	*	*	*
2A\	.	.	2A\	2dd\	.	2ccc#\	1gg\	2A\	De-	.	1e\	bis	.	1a\	De-	.	2dd\)	.	.	16a/LL	.	8a/L	.
.	.	.	.	.	.	.	.	.	.	.	.	.	.	.	.	.	.	.	.	16a/	.	.	.
.	.	.	.	.	.	.	.	.	.	.	.	.	.	.	.	.	.	.	.	16a/	.	16a/L	.
.	.	.	.	.	.	.	.	.	.	.	.	.	.	.	.	.	.	.	.	16a/JJ	.	16a/JJ	.
.	.	.	.	.	.	.	.	.	.	.	.	.	.	.	.	.	.	.	.	8a/L	.	8a/L	.
.	.	.	.	.	.	.	.	.	.	.	.	.	.	.	.	.	.	.	.	8a/J	.	8a/J	.
2AA/	.	.	2AA/	4.cc#\	.	4.ccc#\	.	2AA/	.	.	.	.	.	.	.	.	2cc#\	.	.	8a/L	.	8a/L	.
.	.	.	.	.	.	.	.	.	.	.	.	.	.	.	.	.	.	.	.	16a/L	.	16a/L	.
.	.	.	.	.	.	.	.	.	.	.	.	.	.	.	.	.	.	.	.	16a/JJ	.	16a/JJ	.
.	.	.	.	.	.	.	.	.	.	.	.	.	.	.	.	.	.	.	.	16a/LL	.	16a/LL	.
.	.	.	.	.	.	.	.	.	.	.	.	.	.	.	.	.	.	.	.	16a/	.	16a/	.
!	!	!	!	!LO:SIC:s:o=:v: left flag	!	!	!	!	!	!	!	!	!	!	!	!	!	!	!	!	!	!	!
.	.	.	.	8cc#\	.	8ccc#\	.	.	.	.	.	.	.	.	.	.	.	.	.	16f#/	.	16a/	.
.	.	.	.	.	.	.	.	.	.	.	.	.	.	.	.	.	.	.	.	16f#/JJ	.	16a/JJ	.
*	*	*	*	*	*	*v	*v	*	*	*	*	*	*	*	*	*	*	*	*	*	*	*	*
=113	=113	=113	=113	=113	=113	=113	=113	=113	=113	=113	=113	=113	=113	=113	=113	=113	=113	=113	=113	=113	=113	=113
!LO:N:vis=00	!	!	!LO:N:vis=00	!	!	!	!	!	!	!LO:TX:b:t=S.F.B.	!	!	!	!	!	!LO:TX:b:t=S.F.B.	!	!	!	!	!	!
!LO:TX:b:t=Laus Deo Parri	!	!	!	!LO:N:vis=00	!	!LO:N:vis=00	!LO:N:vis=00	!	!	!LO:N:vis=00	!	!	!LO:N:vis=00	!	!	!LO:N:vis=00	!	!	!LO:N:vis=00	!	!LO:N:vis=00	!
1D\;	.	.	1D\;	1dd\;	.	1ddd\;	1D\	-i	.	1d\;	.	.	1f#\;	-i	.	1dd\	-bis	.	1d/	.	1f#/;	.
!	!	!	!	!	!	!	!	!	!	!	!	!	!LO:TX:b:t=Finis	!	!	!	!	!	!	!	!	!
!	!	!	!	!LO:TX:b:t=Laus Deo	!	!	!	!	!	!	!	!	!LO:TX:b:t=S.F.B.	!	!	!	!	!	!	!	!	!
==	==	==	==	==	==	==	==	==	==	==	==	==	==	==	==	==	==	==	==	==	==	==
*-	*-	*-	*-	*-	*-	*-	*-	*-	*-	*-	*-	*-	*-	*-	*-	*-	*-	*-	*-	*-	*-	*-
!!!system-decoration: [(s1,s2)][(s3,s4,s5,s6)][(s7,s8)]s9
!!!RDF**kern: > = above
!!!RDF**kern: < = below
!!!EED: Leszek Kubiak
!!!EST: 2020-06-05
!!!ENC: Marcin Jachim
!!!END: 2020-05-09
